!!!!SEGMENT: pl-stab--26a--001-010_nowakiewicz-kazimierz--missa-in-d-dona-nobis.krn
!!!cenid: 18xx:3520
!!!COM: Nowakiewicz, Kazimierz
!!!COM-rismID: pe30020309
!!!CDT: <1800->1824
!!!CNT: Polish
!!!OPR: Missa in D
!!!OTL: Dona nobis
!!!OMV: 010
!!!PDT: 1810
!!!AGN:
!!!SMS-siglum: PL-STAb
!!!SMS-shelfmark: 26a
!!!SMS-shelfwork: 001-010 M
!!!SMS-variant:
!!!SMS-altvar:
!!!NIFC-rismSourceID: 301050704
!!!NIFC-rismChildID: 301050704
!!!NIFC-islandoraID: pl-stab:3636
!!!URL-pdf-islandora: https://repozytorium.nifc.pl/islandora/object/pl-stab%3A3636/datastream/PDF/view
!!!URL-scan: https://polish.musicsources.pl/pl/lokalizacje/galeria/rekopisy/4469 @EN{Scan on Polish Music Sources Website} @PL{Skany w portalu Dziedzictwo Muzyki Polskiej w otwartym dostępie}
!!!IIIF:
!!!ONB-nifc: UWAGA: części Mszy: 1. Kyrie, 2. Gloria, 3. Credo, 4. Et incarnatus, 5. Et resurrexit, 6. Sanctus, 7. Benedictus, 8. Osanna, 9. Agnus Dei, 10. Dona nobis
!!!AIN: 1 alto 1 bass 2 clrno 2 cor 2 oboe 1 organ 1 soprn 1 tenor 1 viola 2 violn
!!!OMD:
!!!OMD-mod: Andante
!!!key: D
**kern	**dynam	**kern	**dynam	**kern	**dynam	**kern	**kern	**text	**dynam	**kern	**text	**dynam	**kern	**text	**dynam	**kern	**text	**dynam	**kern	**dynam	**kern	**dynam	**kern	**dynam	**kern	**dynam
*	*	*group4	*	*group4	*	*group4	*group3	*	*	*group3	*	*	*group3	*	*	*group3	*	*	*group2	*	*group2	*	*group1	*	*group1	*
*part12	*part12	*part11	*part11	*part10	*part10	*part9	*part8	*part8	*part8	*part7	*part7	*part7	*part6	*part6	*part6	*part5	*part5	*part5	*part4	*part4	*part3	*part3	*part2	*part2	*part1	*part1
*staff12	*	*staff11	*	*staff10	*	*staff9	*staff8	*staff8	*	*staff7	*staff7	*	*staff6	*staff6	*	*staff5	*staff5	*	*staff4	*	*staff3	*	*staff2	*	*staff1	*
*I"Organo	*	*I"Alto Viola	*	*I"Violino Secundo	*	*I"[Violino I]	*I"Baſso	*	*	*I"Tenor	*	*	*I"Alto	*	*	*I"Canto	*	*	*I"Clarino Secundo et Cornu	*	*I"Clarino Primo et Cornu	*	*I"Oboe Secundo	*	*I"Oboe Primo	*
*	*	*mI"Viola	*	*mI"Violino II	*	*mI"Violino I	*mI"Basso	*	*	*mI"Tenore	*	*	*	*	*	*mI"Soprano	*	*	*mI"Clarino ed Corno II	*	*mI"Clarino ed Corno I	*	*mI"Oboe II	*	*mI"Oboe I	*
*I'org	*	*I'vla	*	*I'vl 2	*	*I'vl 1	*I'B	*	*	*I'T	*	*	*I'A	*	*	*I'S	*	*	*I'clno & cor 2	*	*I'clno & cor 1	*	*I'ob 2	*	*I'ob 1	*
*Iorgan	*	*Iviola	*	*Ivioln	*	*Ivioln	*Ibass	*	*	*Itenor	*	*	*Ialto	*	*	*Isoprn	*	*	*Iclrno&Icor	*	*Iclrno&Icor	*	*Ioboe	*	*Ioboe	*
*ICklav	*	*ICstr	*	*ICstr	*	*ICstr	*ICvox	*	*	*ICvox	*	*	*ICvox	*	*	*ICvox	*	*	*ICbras	*	*ICbras	*	*ICww	*	*ICww	*
*IGcont	*	*	*	*	*	*	*IGcoro	*	*	*IGcoro	*	*	*IGcoro	*	*	*IGcoro	*	*	*	*	*	*	*	*	*	*
*clefF4	*	*clefC3	*	*clefG2	*	*clefG2	*clefF4	*	*	*clefC4	*	*	*clefC3	*	*	*clefC1	*	*	*clefG2	*	*clefG2	*	*clefG2	*	*clefG2	*
*	*	*	*	*	*	*	*	*	*	*mclefGv2	*	*	*mclefG2	*	*	*mclefG2	*	*	*	*	*	*	*	*	*	*
*	*	*	*	*	*	*	*	*	*	*	*	*	*	*	*	*	*	*	*ITrd-1c-2	*	*ITrd-1c-2	*	*	*	*	*
*k[f#c#]	*	*k[f#c#]	*	*k[f#c#]	*	*k[f#c#]	*k[f#c#]	*	*	*k[f#c#]	*	*	*k[f#c#]	*	*	*k[f#c#]	*	*	*k[f#c#]	*	*k[f#c#]	*	*k[f#c#]	*	*k[f#c#]	*
*D:	*	*D:	*	*D:	*	*D:	*D:	*	*	*D:	*	*	*D:	*	*	*D:	*	*	*D:	*	*D:	*	*D:	*	*D:	*
*M2/2	*	*M2/2	*	*M2/2	*	*M2/2	*M2/2	*	*	*M2/2	*	*	*M2/2	*	*	*M2/2	*	*	*M2/2	*	*M2/2	*	*M2/2	*	*M2/2	*
*met(c|)	*	*met(c|)	*	*met(c|)	*	*met(c|)	*met(c|)	*	*	*met(c|)	*	*	*met(c|)	*	*	*met(c|)	*	*	*met(c|)	*	*met(c|)	*	*met(c|)	*	*met(c|)	*
*mmet(c|)	*	*mmet(c|)	*	*mmet(c|)	*	*mmet(c|)	*mmet(c|)	*	*	*mmet(c|)	*	*	*mmet(c|)	*	*	*mmet(c|)	*	*	*mmet(c|)	*	*mmet(c|)	*	*mmet(c|)	*	*mmet(c|)	*
=1	=1	=1	=1	=1	=1	=1	=1	=1	=1	=1	=1	=1	=1	=1	=1	=1	=1	=1	=1	=1	=1	=1	=1	=1	=1	=1
*2\right	*	*2\right	*	*2\right	*	*	*2\right	*	*	*2\right	*	*	*2\right	*	*	*2\right	*	*	*2\right	*	*2\right	*	*2\right	*	*2\right	*
!	!LO:MO:mod=!LO&colon;DY&colon;ed=brack	!	!	!	!	!	!	!	!	!	!	!	!	!	!	!	!	!	!LO:MO:mod=!LO&colon;TX&colon;b&colon;i&colon;t=dolce	!	!	!	!	!	!	!
!	!null	!LO:TX:t=P:problem=mixed beam	!	!	!	!	!	!	!	!	!	!	!	!	!	!	!	!	!LO:TX:b:t=dol.	!	!LO:TX:b:i:t=dolce	!	!	!	!	!
!LO:TX:a:B:t=andante:mod=	!LO:MO:null:mod=p	!LO:TX:a:B:t=andantino:mod=	!LO:DY	!LO:TX:a:B:t=andantino:mod=	!LO:DY:t=po	!	!LO:TX:a:B:t=andante:mod=	!	!	!LO:TX:a:B:t=andante:mod=	!	!	!LO:TX:a:B:t=andante:mod=	!	!LO:DY:rj:t=po	!LO:TX:a:B:t=andante:mod=	!	!LO:DY:t=po	!LO:TX:a:B:t=andante:mod=	!	!LO:TX:b:t=Solo:mod=	!	!LO:TX:a:B:t=andante:mod=	!	!LO:TX:a:B:t=andante:mod=	!
4D\	.	8D/L	p	2f#/	p	1ryy	00r	.	.	00r	.	.	2f#\	Do-	p	2a\	Do-	p	2ff#\	.	2aa\	.	00r	.	00r	.
.	.	8d\	.	.	.	.	.	.	.	.	.	.	.	.	.	.	.	.	.	.	.	.	.	.	.	.
4d\	.	8d\	.	.	.	.	.	.	.	.	.	.	.	.	.	.	.	.	.	.	.	.	.	.	.	.
.	.	8d\J	.	.	.	.	.	.	.	.	.	.	.	.	.	.	.	.	.	.	.	.	.	.	.	.
*	*	*tremolo	*	*	*	*	*	*	*	*	*	*	*	*	*	*	*	*	*	*	*	*	*	*	*	*
!	!	!	!	!	!	!	!	!	!	!	!	!	!	!	!	!	!LO:MO:null:mod=-na	!	!	!	!	!	!	!	!	!
4d\	.	8d\L	.	4d/	.	.	.	.	.	.	.	.	4d\	-na	.	4f#\	.	.	4dd\	.	4ff#\	.	.	.	.	.
.	.	8d\	.	.	.	.	.	.	.	.	.	.	.	.	.	.	.	.	.	.	.	.	.	.	.	.
!	!	!	!	!	!	!	!	!	!	!	!	!	!	!	!	!	!LO:MO:mod=.	!	!	!	!	!	!	!	!	!
4d\	.	8d\	.	4e/	.	.	.	.	.	.	.	.	4e\	.	.	4g\	-na	.	4ee\	.	4gg\	.	.	.	.	.
.	.	8d\J	.	.	.	.	.	.	.	.	.	.	.	.	.	.	.	.	.	.	.	.	.	.	.	.
*	*	*Xtremolo	*	*	*	*	*	*	*	*	*	*	*	*	*	*	*	*	*	*	*	*	*	*	*	*
=2	=2	=2	=2	=2	=2	=2	=2	=2	=2	=2	=2	=2	=2	=2	=2	=2	=2	=2	=2	=2	=2	=2	=2	=2	=2	=2
!	!	!LO:TX:t=P:problem=mixed beam	!	!	!	!	!	!	!	!	!	!	!	!	!	!	!	!	!	!	!	!LO:DY:mod= :t=f.	!	!	!	!
4D\	.	8D/L	.	2f#/	.	1ryy	.	.	.	.	.	.	2f#\	no-	.	2a\	no-	.	2ff#\	.	2aa\	f	.	.	.	.
.	.	8d\	.	.	.	.	.	.	.	.	.	.	.	.	.	.	.	.	.	.	.	.	.	.	.	.
4d\	.	8d\	.	.	.	.	.	.	.	.	.	.	.	.	.	.	.	.	.	.	.	.	.	.	.	.
.	.	8d\J	.	.	.	.	.	.	.	.	.	.	.	.	.	.	.	.	.	.	.	.	.	.	.	.
*	*	*tremolo	*	*	*	*	*	*	*	*	*	*	*	*	*	*	*	*	*	*	*	*	*	*	*	*
!	!	!	!	!	!	!	!	!	!	!	!	!	!	!	!	!	!LO:MO:null:mod=-bis	!	!	!	!	!	!	!	!	!
4d\	.	8d\L	.	4g/	.	.	.	.	.	.	.	.	4g\	-bis	.	4b\	.	.	2r	.	2r	.	.	.	.	.
.	.	8d\	.	.	.	.	.	.	.	.	.	.	.	.	.	.	.	.	.	.	.	.	.	.	.	.
!	!	!	!	!	!	!	!	!	!	!	!	!	!	!	!	!	!LO:MO:mod=.	!	!	!	!	!	!	!	!	!
4d\	.	8d\	.	4a/	.	.	.	.	.	.	.	.	4a\	.	.	4cc#\	-bis	.	.	.	.	.	.	.	.	.
.	.	8d\J	.	.	.	.	.	.	.	.	.	.	.	.	.	.	.	.	.	.	.	.	.	.	.	.
*	*	*Xtremolo	*	*	*	*	*	*	*	*	*	*	*	*	*	*	*	*	*	*	*	*	*	*	*	*
=3	=3	=3	=3	=3	=3	=3	=3	=3	=3	=3	=3	=3	=3	=3	=3	=3	=3	=3	=3	=3	=3	=3	=3	=3	=3	=3
!	!	!LO:TX:t=P:problem=mixed beam	!	!	!	!	!	!	!	!	!	!	!	!	!	!	!	!	!	!	!LO:TX:a:t=1:mod=	!	!	!	!	!
4D\	.	8D/L	.	4.b\	.	1ryy	.	.	.	.	.	.	2b\	pa-	.	4.dd\	pa-	.	1r	.	1r	.	.	.	.	.
.	.	8d\	.	.	.	.	.	.	.	.	.	.	.	.	.	.	.	.	.	.	.	.	.	.	.	.
4d\	.	8d\	.	.	.	.	.	.	.	.	.	.	.	.	.	.	.	.	.	.	.	.	.	.	.	.
.	.	8d\J	.	16cc#\LL	.	.	.	.	.	.	.	.	.	.	.	16ee\LL	.	.	.	.	.	.	.	.	.	.
.	.	.	.	16b\JJ	.	.	.	.	.	.	.	.	.	.	.	16dd\JJ	.	.	.	.	.	.	.	.	.	.
*	*	*tremolo	*	*	*	*	*	*	*	*	*	*	*	*	*	*	*	*	*	*	*	*	*	*	*	*
4d\	.	8d\L	.	4a/	.	.	.	.	.	.	.	.	4a\	.	.	4cc#\	.	.	.	.	.	.	.	.	.	.
.	.	8d\	.	.	.	.	.	.	.	.	.	.	.	.	.	.	.	.	.	.	.	.	.	.	.	.
4d\	.	8d\	.	4g/	.	.	.	.	.	.	.	.	4g\	.	.	4b\	.	.	.	.	.	.	.	.	.	.
.	.	8d\J	.	.	.	.	.	.	.	.	.	.	.	.	.	.	.	.	.	.	.	.	.	.	.	.
*	*	*Xtremolo	*	*	*	*	*	*	*	*	*	*	*	*	*	*	*	*	*	*	*	*	*	*	*	*
=4	=4	=4	=4	=4	=4	=4	=4	=4	=4	=4	=4	=4	=4	=4	=4	=4	=4	=4	=4	=4	=4	=4	=4	=4	=4	=4
!	!LO:DY:t=f.:rj	!LO:TX:t=P:problem=mixed beam	!LO:DY:t=fr	!	!LO:DY:t=fr	!	!	!	!	!	!	!	!	!	!LO:DY:rj:t=fr.	!	!	!LO:DY:t=for	!	!	!LO:TX:a:t=2:mod=	!	!	!	!	!
8d\L	f	8d\L	f	8f#/L	f	1ryy	.	.	.	.	.	.	2f#\	-cem	f	2a\	-cem	f	0r	.	0r	.	.	.	.	.
8D\	.	8D/	.	8d/	.	.	.	.	.	.	.	.	.	.	.	.	.	.	.	.	.	.	.	.	.	.
8E\	.	8E/	.	8e/	.	.	.	.	.	.	.	.	.	.	.	.	.	.	.	.	.	.	.	.	.	.
8F#\J	.	8F#/J	.	8f#/J	.	.	.	.	.	.	.	.	.	.	.	.	.	.	.	.	.	.	.	.	.	.
8G\L	.	8G/L	.	8g/L	.	.	.	.	.	.	.	.	2r	.	.	2r	.	.	.	.	.	.	.	.	.	.
8A\	.	8A/	.	8a/	.	.	.	.	.	.	.	.	.	.	.	.	.	.	.	.	.	.	.	.	.	.
8B\	.	8B/	.	8b/	.	.	.	.	.	.	.	.	.	.	.	.	.	.	.	.	.	.	.	.	.	.
8c#\J	.	8c#/J	.	8cc#/J	.	.	.	.	.	.	.	.	.	.	.	.	.	.	.	.	.	.	.	.	.	.
=5	=5	=5	=5	=5	=5	=5	=5	=5	=5	=5	=5	=5	=5	=5	=5	=5	=5	=5	=5	=5	=5	=5	=5	=5	=5	=5
4d\	.	4d\	.	4dd\	.	1ryy	1r	.	.	1r	.	.	00r	.	.	0r	.	.	.	.	.	.	0r	.	0r	.
4A\	.	4A\	.	4a/	.	.	.	.	.	.	.	.	.	.	.	.	.	.	.	.	.	.	.	.	.	.
4F#\	.	4F#/	.	4f#/	.	.	.	.	.	.	.	.	.	.	.	.	.	.	.	.	.	.	.	.	.	.
4D\	.	4D/	.	4d/	.	.	.	.	.	.	.	.	.	.	.	.	.	.	.	.	.	.	.	.	.	.
=6	=6	=6	=6	=6	=6	=6	=6	=6	=6	=6	=6	=6	=6	=6	=6	=6	=6	=6	=6	=6	=6	=6	=6	=6	=6	=6
!	!LO:MO:mod=!LO&colon;DY&colon;ed=brack	!	!LO:MO:mod=!LO&colon;DY&colon;ed=brack	!	!LO:MO:mod=!LO&colon;DY&colon;ed=brack	!	!	!	!	!	!	!	!	!	!	!	!	!	!	!	!	!	!	!	!	!
!	!null	!	!null	!	!null	!	!	!	!	!	!	!	!	!	!	!	!	!	!	!	!	!	!	!	!	!
!	!LO:MO:null:mod=p	!LO:TX:t=P:problem=mixed beam	!LO:MO:null:mod=p	!	!LO:MO:null:mod=p	!	!	!	!	!	!	!	!	!	!	!	!	!	!	!LO:DY:t=p.	!	!	!	!	!	!
4d\	.	8d\L	.	4f#/	.	1ryy	2F#\	Do-	.	2A\	Do-	.	.	.	.	.	.	.	2ff#\	p	2aa\	p	.	.	.	.
!	!	!	!LO:MO:mod=.	!	!	!	!	!	!	!	!	!	!	!	!	!	!	!	!	!	!	!	!	!	!	!
.	.	8D/	pp	.	.	.	.	.	.	.	.	.	.	.	.	.	.	.	.	.	.	.	.	.	.	.
4D/	.	8d\	.	4r	.	.	.	.	.	.	.	.	.	.	.	.	.	.	.	.	.	.	.	.	.	.
.	.	8d\J	.	.	.	.	.	.	.	.	.	.	.	.	.	.	.	.	.	.	.	.	.	.	.	.
*	*	*tremolo	*	*	*	*	*	*	*	*	*	*	*	*	*	*	*	*	*	*	*	*	*	*	*	*
4D/	.	8d\L	.	4d/	.	.	4D\	-na	.	4F#/	-na	.	.	.	.	.	.	.	4dd\	.	4ff#\	.	.	.	.	.
.	.	8d\	.	.	.	.	.	.	.	.	.	.	.	.	.	.	.	.	.	.	.	.	.	.	.	.
4D/	.	8d\	.	4e/	.	.	4E\	.	.	4G/	.	.	.	.	.	.	.	.	4ee\	.	4gg\	.	.	.	.	.
.	.	8d\J	.	.	.	.	.	.	.	.	.	.	.	.	.	.	.	.	.	.	.	.	.	.	.	.
*	*	*Xtremolo	*	*	*	*	*	*	*	*	*	*	*	*	*	*	*	*	*	*	*	*	*	*	*	*
!LO:LB:g=original	!	!LO:LB:g=original	!	!LO:LB:g=original	!	!	!	!	!	!	!	!	!	!	!	!	!	!	!	!	!	!	!	!	!	!
=7	=7	=7	=7	=7	=7	=7	=7	=7	=7	=7	=7	=7	=7	=7	=7	=7	=7	=7	=7	=7	=7	=7	=7	=7	=7	=7
!	!	!LO:TX:t=P:problem=mixed beam	!	!	!	!	!	!	!	!	!	!	!	!	!	!	!	!	!	!	!	!	!	!	!	!
4d\	.	8D/L	.	(<4f#/	.	1ryy	4F#\	no-	.	4A/	no-	.	.	.	.	1r	.	.	(>4ff#^<\	.	(>4aa^<\	.	1r	.	1r	.
.	.	8d\	.	.	.	.	.	.	.	.	.	.	.	.	.	.	.	.	.	.	.	.	.	.	.	.
4d\	.	8d\	.	8d/)	.	.	4D\	-bis	.	4F#/	-bis	.	.	.	.	.	.	.	8dd\)	.	8ff#\)	.	.	.	.	.
.	.	8d\J	.	8r	.	.	.	.	.	.	.	.	.	.	.	.	.	.	8r	.	8r	.	.	.	.	.
*	*	*tremolo	*	*	*	*	*	*	*	*	*	*	*	*	*	*	*	*	*	*	*	*	*	*	*	*
4A\	.	8c#\L	.	(<4e/	.	.	4E\	pa-	.	4G/	pa-	.	.	.	.	.	.	.	(>4ee^<\	.	(>4gg^<\	.	.	.	.	.
.	.	8A\	.	.	.	.	.	.	.	.	.	.	.	.	.	.	.	.	.	.	.	.	.	.	.	.
4AA/	.	8c#\	.	8c#/)	.	.	4C#\	.	.	4E/	.	.	.	.	.	.	.	.	8a/)	.	8ee\)	.	.	.	.	.
.	.	8A\J	.	8r	.	.	.	.	.	.	.	.	.	.	.	.	.	.	8r	.	8r	.	.	.	.	.
*	*	*Xtremolo	*	*	*	*	*	*	*	*	*	*	*	*	*	*	*	*	*	*	*	*	*	*	*	*
=8	=8	=8	=8	=8	=8	=8	=8	=8	=8	=8	=8	=8	=8	=8	=8	=8	=8	=8	=8	=8	=8	=8	=8	=8	=8	=8
!	!LO:MO:mod=!LO&colon;DY&colon;ed=brack	!	!	!	!	!	!	!	!	!	!	!	!	!	!	!	!	!	!	!	!	!	!	!	!	!
!	!null	!	!	!	!	!	!	!	!	!	!	!	!	!	!	!	!	!	!	!	!	!	!	!	!	!
!	!LO:MO:null:mod=f	!	!LO:DY:rj:t=fr	!	!LO:DY:t=fr	!	!	!	!	!	!	!	!	!	!	!	!	!	!	!LO:DY:rj:t=f.	!	!LO:DY:t=f.	!	!LO:DY:rj:t=f.	!	!LO:DY:t=for
4D\	.	8A/ 8D/	f	8d/	f	1ryy	2D\	-cem	.	4F#/	-cem	.	.	.	.	1r	.	.	4f#/	f	4dd\	f	4dd\	f	4ff#\	f
.	.	4A/ 4D/	.	4f#/ 4d/	.	.	.	.	.	.	.	.	.	.	.	.	.	.	.	.	.	.	.	.	.	.
4F#\	.	.	.	.	.	.	.	.	.	4r	.	.	.	.	.	.	.	.	4f#/	.	4dd\	.	4dd\	.	4ff#\	.
.	.	4A/ 4D/	.	4f#/ 4d/	.	.	.	.	.	.	.	.	.	.	.	.	.	.	.	.	.	.	.	.	.	.
4A\	.	.	.	.	.	.	2r	.	.	2r	.	.	.	.	.	.	.	.	4f#/	.	4dd\	.	4dd\	.	4ff#\	.
.	.	4A/ 4D/	.	4f#/ 4d/	.	.	.	.	.	.	.	.	.	.	.	.	.	.	.	.	.	.	.	.	.	.
4d\	.	.	.	.	.	.	.	.	.	.	.	.	.	.	.	.	.	.	4f#/	.	4dd\	.	4dd\	.	4ff#\	.
.	.	8A/ 8D/	.	8f#/ 8d/	.	.	.	.	.	.	.	.	.	.	.	.	.	.	.	.	.	.	.	.	.	.
=9	=9	=9	=9	=9	=9	=9	=9	=9	=9	=9	=9	=9	=9	=9	=9	=9	=9	=9	=9	=9	=9	=9	=9	=9	=9	=9
*	*	*tremolo	*	*tremolo	*	*	*	*	*	*	*	*	*	*	*	*	*	*	*	*	*	*	*	*	*	*
!	!	!	!	!	!	!	!	!	!	!	!	!LO:MO:mod=!LO&colon;DY&colon;ed=brack	!	!	!	!	!	!	!	!	!	!	!	!	!	!
!	!	!	!	!	!	!	!	!	!	!	!	!null	!	!	!	!	!	!	!	!	!	!	!	!	!	!
!	!	!	!	!	!LO:DY:rj:t=fr	!	!	!	!	!	!LO:MO:mod=do-	!LO:MO:null:mod=fp	!	!	!	!	!LO:MO:mod=do-	!LO:DY:rj	!	!	!	!	!	!LO:DY:t=fp.	!	!LO:DY:t=fp.
4c#\	.	8e\L 8c#\	fp	8gg\L 8a\	fp	1ryy	00r	.	.	2e\	Do-	.	00r	.	.	2gg\	Do-	fp	0r	.	0r	.	2ee\	fp	2gg\	fp
.	.	8e\ 8c#\	.	8gg\ 8a\	.	.	.	.	.	.	.	.	.	.	.	.	.	.	.	.	.	.	.	.	.	.
4A\	.	8e\ 8c#\	.	8gg\ 8a\	.	.	.	.	.	.	.	.	.	.	.	.	.	.	.	.	.	.	.	.	.	.
.	.	8e\J 8c#\	.	8gg\J 8a\	.	.	.	.	.	.	.	.	.	.	.	.	.	.	.	.	.	.	.	.	.	.
!	!	!	!	!	!LO:DY	!	!	!	!	!	!	!	!	!	!	!	!LO:MO:null:mod=-na	!	!	!	!	!	!	!LO:DY:t=fp.	!	!LO:DY:t=fp.
4AA/	.	8e\L 8c#\	fp	8gg\L 8a\	fp	.	.	.	.	4d\	-na	.	.	.	.	4ff#\	.	.	.	.	.	.	4dd\	fp	4ff#\	fp
.	.	8e\ 8c#\	.	8gg\ 8a\	.	.	.	.	.	.	.	.	.	.	.	.	.	.	.	.	.	.	.	.	.	.
!	!	!	!	!	!	!	!	!	!	!	!	!	!	!	!	!	!LO:MO:mod=.	!	!	!	!	!	!	!	!	!
4A\	.	8e\ 8c#\	.	8gg\ 8a\	.	.	.	.	.	4c#\	.	.	.	.	.	4ee\	-na	.	.	.	.	.	4cc#\	.	4ee\	.
.	.	8e\J 8c#\	.	8gg\J 8a\	.	.	.	.	.	.	.	.	.	.	.	.	.	.	.	.	.	.	.	.	.	.
!	!	!	!	!	!	!	!	!	!	!LO:LB:g=original	!	!	!	!	!	!	!	!	!	!	!	!	!	!	!	!
=10	=10	=10	=10	=10	=10	=10	=10	=10	=10	=10	=10	=10	=10	=10	=10	=10	=10	=10	=10	=10	=10	=10	=10	=10	=10	=10
!	!	!	!	!	!	!	!	!	!	!	!	!LO:MO:mod=!LO&colon;DY&colon;ed=brack	!	!	!	!	!	!	!	!	!	!	!	!	!	!
!	!	!	!	!	!	!	!	!	!	!	!	!null	!	!	!	!	!	!	!	!	!	!	!	!	!	!
!	!	!	!	!	!LO:DY:t=fp.	!	!	!	!	!	!	!LO:MO:null:mod=p	!	!	!	!	!	!LO:DY	!	!	!	!	!	!LO:DY:t=fp.	!	!LO:DY:t=fp.
4D\	.	8f#\L 8d\	fp	8ff#\L 8a\	fp	1ryy	.	.	.	4.d\	no-	.	.	.	.	4.ff#\	no-	p	.	.	.	.	4.dd\	fp	4.ff#\	fp
.	.	8f#\ 8d\	.	8ff#\ 8a\	.	.	.	.	.	.	.	.	.	.	.	.	.	.	.	.	.	.	.	.	.	.
4d\	.	8f#\ 8d\	.	8ff#\ 8a\	.	.	.	.	.	.	.	.	.	.	.	.	.	.	.	.	.	.	.	.	.	.
.	.	8f#\J 8d\	.	8ff#\J 8a\	.	.	.	.	.	16e\LL	.	.	.	.	.	16gg\LL	.	.	.	.	.	.	16ee\LL	.	16gg\LL	.
.	.	.	.	.	.	.	.	.	.	16d\JJ	.	.	.	.	.	16ff#\JJ	.	.	.	.	.	.	16dd\JJ	.	16ff#\JJ	.
*	*	*rep	*	*	*	*	*	*	*	*	*	*	*	*	*	*	*	*	*	*	*	*	*	*	*	*
!	!	!	!LO:MO:mod=!LO&colon;DY&colon;ed=brack	!	!	!	!	!	!	!	!	!	!	!	!	!	!	!	!	!	!	!	!	!	!	!
!	!	!	!null	!	!	!	!	!	!	!	!	!	!	!	!	!	!	!	!	!	!	!	!	!	!	!
!	!	!	!LO:MO:null:mod=fp	!	!	!	!	!	!	!	!	!	!	!	!	!	!	!	!	!	!	!	!LO:SIC:v:s=4a	!LO:DY:t=fp.	!	!LO:DY:t=fp.
4D/	.	8f#\L 8d\	.	8ff#\L 8a\	fp	.	.	.	.	4A\	-bis	.	.	.	.	4ee\	-bis	.	.	.	.	.	4b/	fp	4ee\	fp
.	.	8f#\ 8d\	.	8ff#\ 8a\	.	.	.	.	.	.	.	.	.	.	.	.	.	.	.	.	.	.	.	.	.	.
4D/	.	8f#\ 8d\	.	8ff#\ 8a\	.	.	.	.	.	4F#/	.	.	.	.	.	4dd\	.	.	.	.	.	.	4f#/	.	4dd\	.
.	.	8f#\J 8d\	.	8ff#\J 8a\	.	.	.	.	.	.	.	.	.	.	.	.	.	.	.	.	.	.	.	.	.	.
*	*	*Xrep	*	*	*	*	*	*	*	*	*	*	*	*	*	*	*	*	*	*	*	*	*	*	*	*
*	*	*Xtremolo	*	*Xtremolo	*	*	*	*	*	*	*	*	*	*	*	*	*	*	*	*	*	*	*	*	*	*
!	!	!	!	!	!	!	!	!	!	!	!	!	!	!	!	!LO:LB:g=original	!	!	!	!	!	!	!	!	!	!
=11	=11	=11	=11	=11	=11	=11	=11	=11	=11	=11	=11	=11	=11	=11	=11	=11	=11	=11	=11	=11	=11	=11	=11	=11	=11	=11
!	!	!	!	!	!	!	!	!	!	!	!LO:MO:mod=do-	!	!	!	!	!	!LO:MO:mod=do-	!	!	!	!	!	!	!	!	!
4AA/	.	4e\ 4c#\	.	8gg\	.	1ryy	.	.	.	4E/	Do-	.	.	.	.	4cc#\	Do-	.	1r	.	1r	.	4e/	.	4cc#\	.
.	.	.	.	8r	.	.	.	.	.	.	.	.	.	.	.	.	.	.	.	.	.	.	.	.	.	.
!	!	!	!	!LO:SIC:s=4f#	!	!	!	!	!	!	!	!	!	!	!	!	!	!	!	!	!	!	!	!	!	!
4A\	.	4A/	.	(<4f#/	.	.	.	.	.	4F#/	-na	.	.	.	.	4dd\	-na	.	.	.	.	.	4f#/	.	4dd\	.
!	!	!	!	!LO:SIC:s=4e	!	!	!	!	!	!	!	!	!	!	!	!	!	!	!	!	!	!	!	!	!	!
4AA/	.	4c#/	.	4e/)	.	.	.	.	.	4E/	pa-	.	.	.	.	4gg\	pa-	.	.	.	.	.	4g/	.	4ee\	.
4A\	.	4A/	.	4d/	.	.	.	.	.	4D/	.	.	.	.	.	4ff#\	.	.	.	.	.	.	4d/	.	4ff#\	.
=12	=12	=12	=12	=12	=12	=12	=12	=12	=12	=12	=12	=12	=12	=12	=12	=12	=12	=12	=12	=12	=12	=12	=12	=12	=12	=12
!	!	!	!	!	!	!	!	!	!	!	!	!LO:MO:mod=!LO&colon;DY&colon;ed=brack	!	!	!	!	!	!	!	!	!	!	!	!	!	!
!	!	!	!	!	!	!	!	!	!	!	!	!null	!	!	!	!	!	!	!	!	!	!	!	!	!	!
!	!	!	!	!	!	!	!	!	!	!	!	!LO:MO:null:mod=f	!	!	!	!	!	!LO:DY:rj	!	!LO:DY:t=for.	!	!LO:MO:null:mod=f	!	!LO:DY:t=fr.	!	!LO:DY:t=fr.
4AA/	.	8a\	.	8c#/	.	1ryy	.	.	.	4C#/	-cem	.	.	.	.	4ee\	-cem	f	4a/	f	4ee\	.	4c#/	f	4gg\	f
.	.	4c#/ 4E/	.	4g/ 4A/	.	.	.	.	.	.	.	.	.	.	.	.	.	.	.	.	.	.	.	.	.	.
4C#/	.	.	.	.	.	.	.	.	.	4r	.	.	.	.	.	4r	.	.	4a/	.	4ee\	.	4cc#\	.	4gg\	.
.	.	4c#/ 4E/	.	4g/ 4A/	.	.	.	.	.	.	.	.	.	.	.	.	.	.	.	.	.	.	.	.	.	.
4E/	.	.	.	.	.	.	.	.	.	2r	.	.	.	.	.	2r	.	.	4a/	.	4ee\	.	4cc#\	.	4gg\	.
.	.	4c#/ 4E/	.	4g/ 4A/	.	.	.	.	.	.	.	.	.	.	.	.	.	.	.	.	.	.	.	.	.	.
4A\	.	.	.	.	.	.	.	.	.	.	.	.	.	.	.	.	.	.	4a/	.	4ee\	.	4cc#\	.	4gg\	.
.	.	8c#/ 8E/	.	8g/ 8A/	.	.	.	.	.	.	.	.	.	.	.	.	.	.	.	.	.	.	.	.	.	.
!	!	!	!	!	!	!	!	!	!	!	!	!	!	!	!	!	!	!	!	!	!	!	!LO:LB:g=original	!	!	!
=13	=13	=13	=13	=13	=13	=13	=13	=13	=13	=13	=13	=13	=13	=13	=13	=13	=13	=13	=13	=13	=13	=13	=13	=13	=13	=13
*	*	*	*	*	*	*	*	*ij	*	*	*	*	*	*	*	*	*	*	*	*	*	*	*	*	*	*
!	!	!	!	!	!	!	!	!	!	!	!	!	!	!	!	!	!	!	!LO:MO:mod=!LO&colon;TX&colon;b&colon;i&colon;t=dolce	!	!	!	!	!	!	!
!	!	!LO:SIC:s=(2e^	!	!LO:SIC:s=(2cc#X 2e^	!	!	!LO:SIC:s=2G^	!LO:MO:mod=do-	!	!	!	!	!	!LO:MO:mod=do-	!	!	!	!	!LO:TX:b:t=dol	!	!LO:TX:b:i:t= :mod=dolce	!LO:DY:mod= :t=f.	!LO:SIC:s=(2ee^	!	!	!
(>2c#X^<\	.	2e\	.	2cc#X/ 2e/	.	1ryy	2G\	Do-	.	00r	.	.	2e^>\	Do-	.	0r	.	.	2ee\	.	2gg\	f	2ee^<\	.	(>2gg^<\	.
!	!	!LO:SIC:s=8f#)	!	!LO:SIC:s=8dd 8d)	!	!	!	!	!	!	!	!	!	!	!	!	!	!	!	!	!	!	!LO:SIC:s=8dd)	!	!	!
8d\)	.	8f#\	.	8dd/ 8d/	.	.	4F#\	-na	.	.	.	.	4d\	-na	.	.	.	.	4dd\	.	4ff#\	.	8dd\	.	8ff#\)	.
8r	.	8r	.	8r	.	.	.	.	.	.	.	.	.	.	.	.	.	.	.	.	.	.	8r	.	8r	.
4r	.	4r	.	4r	.	.	4E\	.	.	.	.	.	4c#X\	.	.	.	.	.	4a/	.	4ee\	.	4r	.	4r	.
!	!	!	!	!LO:LB:g=original	!	!	!	!	!	!	!	!	!	!	!	!	!	!	!	!	!	!	!	!	!LO:LB:g=original	!
=14	=14	=14	=14	=14	=14	=14	=14	=14	=14	=14	=14	=14	=14	=14	=14	=14	=14	=14	=14	=14	=14	=14	=14	=14	=14	=14
!	!	!LO:SIC:s=(2f#^	!	!LO:SIC:s=2d 2A^	!	!	!LO:SIC:s=4F#^	!	!	!	!	!	!	!	!	!	!	!	!LO:SIC:s=2dd^	!	!LO:TX:t=P:problem=diminuendolike accent	!	!	!	!	!
(>2A^<\	.	2f#\	.	2d/ 2A/	.	1ryy	4F#\	no-	.	.	.	.	4d^>\	no-	.	.	.	.	2dd\	.	2ff#\^<	.	(>2dd^<\	.	(>2ff#^\	.
.	.	.	.	.	.	.	4F#\	-bis	.	.	.	.	4A/	-bis	.	.	.	.	.	.	.	.	.	.	.	.
!	!	!LO:SIC:s=8a)	!	!	!	!	!	!	!	!	!	!	!	!	!	!	!	!	!	!	!	!	!	!	!	!
8D\)	.	8a\	.	8d/ 8A/	.	.	4F#\	pa-	.	.	.	.	4A/	pa-	.	.	.	.	2r	.	2r	.	4a/)	.	8dd\)	.
8r	.	8r	.	8r	.	.	.	.	.	.	.	.	.	.	.	.	.	.	.	.	.	.	.	.	8r	.
!	!	!LO:SIC:s=(4f#^	!	!LO:SIC:s=(4ee 4cc#^	!	!	!	!	!	!	!	!	!	!	!	!	!	!	!	!	!	!	!	!	!	!
(<4C#^>/	.	4f#\	.	4ee\ 4cc#\	.	.	4A\	.	.	.	.	.	4G/	.	.	.	.	.	.	.	.	.	(<4g/	.	(<4a/	.
!	!	!LO:LB:g=original	!	!	!	!	!	!	!	!	!	!	!	!	!	!	!	!	!	!	!	!	!	!	!	!
=15	=15	=15	=15	=15	=15	=15	=15	=15	=15	=15	=15	=15	=15	=15	=15	=15	=15	=15	=15	=15	=15	=15	=15	=15	=15	=15
!	!	!LO:SIC:s=8c#)	!	!LO:SIC:s=8ee 8cc#)	!	!	!	!	!	!	!	!	!	!	!	!	!	!	!	!	!	!	!	!	!	!
4AA/)	.	8c#\	.	8ee\ 8cc#\	.	1ryy	4AA/	-cem	.	.	.	.	8G/	-cem	.	8r	.	.	00r	.	00r	.	8e/)	.	8g/)	.
*	*	*	*	*	*	*	*	*Xij	*	*	*	*	*	*	*	*	*	*	*	*	*	*	*	*	*	*
!	!	!	!	!	!	!	!	!	!	!	!	!	!LO:SIC:s=8c#	!LO:MO:mod=do-	!LO:MO:null:mod=p	!LO:SIC:s=8e	!LO:MO:mod=do-	!LO:MO:null:mod=p	!	!	!	!	!	!	!	!
.	.	8r	.	8r	.	.	.	.	.	.	.	.	8c#\L	Do-	.	8e/L	Do-	.	.	.	.	.	8r	.	8r	.
!	!	!	!	!	!	!	!	!	!	!	!	!	!LO:SIC:s=8dL	!	!	!LO:SIC:s=8f#L	!	!	!	!	!	!	!	!LO:MO:null:mod=p	!	!LO:MO:null:mod=p
4A\	.	4r	.	4r	.	.	4r	.	.	.	.	.	8d\	-na	.	8f#/	-na	.	.	.	.	.	8d/L	.	8f#/L	.
.	.	.	.	.	.	.	.	.	.	.	.	.	8e\J	.	.	8g/J	.	.	.	.	.	.	8e/J	.	8g/J	.
!LO:LB:g=original	!	!	!	!	!	!	!	!	!	!	!	!	!LO:LB:g=original	!	!	!	!	!	!	!	!	!	!	!	!	!
!	!	!	!	!	!	!	!	!	!	!	!	!	!	!	!LO:DY:rj:mod= :t=p.	!	!	!LO:DY:rj:mod= :t=p.	!	!	!	!	!	!	!	!LO:DY:mod= :t=po
4AA/	.	2r	.	8r	.	.	2r	.	.	.	.	.	8f#\L	no-	p	8a\L	no-	p	.	.	.	.	8f#/L	.	8a/L	p
!	!	!	!	!	!	!	!	!	!	!	!	!	!LO:SIC:s=8gJ	!	!	!LO:SIC:s=8bJ	!	!	!	!	!	!	!	!	!	!
.	.	.	.	8G/L	.	.	.	.	.	.	.	.	8g\	.	.	8b\	.	.	.	.	.	.	8g/	.	8b/	.
!	!	!	!	!	!	!	!	!	!	!	!	!	!LO:SIC:s=8aL	!	!	!LO:SIC:s=8cc#L	!	!	!	!	!	!	!	!LO:DY:mod= :t=po:rj	!	!
4AA/	.	.	.	8A/	.	.	.	.	.	.	.	.	8a\	-bis	.	8cc#\	-bis	.	.	.	.	.	8a/	p	8cc#/	.
.	.	.	.	8B/J	.	.	.	.	.	.	.	.	8b\J	.	.	8dd\J	.	.	.	.	.	.	8b/J	.	8dd/J	.
=16	=16	=16	=16	=16	=16	=16	=16	=16	=16	=16	=16	=16	=16	=16	=16	=16	=16	=16	=16	=16	=16	=16	=16	=16	=16	=16
4AA/	.	1r	.	8c#/L	.	1ryy	1r	.	.	.	.	.	8cc#\L	pa-	.	8ee\L	pa-	.	.	.	.	.	8cc#/L	.	8ee/L	.
.	.	.	.	8B/	.	.	.	.	.	.	.	.	8b\	.	.	8dd\	.	.	.	.	.	.	8b/	.	8dd/	.
4A\	.	.	.	8A/	.	.	.	.	.	.	.	.	8a\	.	.	8cc#\	.	.	.	.	.	.	8a/	.	8cc#/	.
.	.	.	.	8G/J	.	.	.	.	.	.	.	.	8g\J	.	.	8b\J	.	.	.	.	.	.	8g/J	.	8b/J	.
4AA/	.	.	.	8A/L	.	.	.	.	.	.	.	.	8f#\L	.	.	8a/L	.	.	.	.	.	.	8f#/L	.	8a/L	.
.	.	.	.	8e/	.	.	.	.	.	.	.	.	8e\	.	.	8g/	.	.	.	.	.	.	8e/	.	8g/	.
4AA/	.	.	.	8d/	.	.	.	.	.	.	.	.	8d\	.	.	8f#/	.	.	.	.	.	.	8d/	.	8f#/	.
.	.	.	.	8c#/J	.	.	.	.	.	.	.	.	8c#\J	.	.	8e/J	.	.	.	.	.	.	8c#/J	.	8e/J	.
=17	=17	=17	=17	=17	=17	=17	=17	=17	=17	=17	=17	=17	=17	=17	=17	=17	=17	=17	=17	=17	=17	=17	=17	=17	=17	=17
4D\	.	8r	.	8d/L	.	1ryy	8r	.	.	8r	.	.	4d\	-cem	.	4f#/	-cem	.	.	.	.	.	4d/	.	4f#/	.
!	!	!	!	!	!LO:MO:mod=!LO&colon;HP&colon;ed=brack	!	!	!	!	!	!	!	!	!	!	!	!	!	!	!	!	!	!	!	!	!
!	!	!	!	!	!null	!	!	!	!	!	!	!	!	!	!	!	!	!	!	!	!	!	!	!	!	!
!	!	!	!LO:HP:b	!	!LO:MO:null:mod=>	!	!LO:SIC:s=8D	!LO:MO:mod=do-	!	!	!LO:MO:mod=do-	!	!	!	!	!	!	!	!	!	!	!	!	!	!	!
.	.	8F#/L	>	8f#/	.	.	8D\L	Do-	.	8F#/	Do-	.	.	.	.	.	.	.	.	.	.	.	.	.	.	.
!	!	!	!	!	!	!	!LO:SIC:s=8EL	!	!	!LO:SIC:s=8GL	!	!	!	!	!	!	!	!	!	!	!	!	!	!	!	!
4d\	.	8G/	.	8g/	.	.	8E\	-na	.	8G/	-na	.	4r	.	.	4r	.	.	.	.	.	.	4r	.	4r	.
!	!	!	!	!	!	!	!	!	!	!LO:SIC:s=8AJ	!	!	!	!	!	!	!	!	!	!	!	!	!	!	!	!
.	.	8A/J	.	8A/J	.	.	8F#\J	.	.	8A/	.	.	.	.	.	.	.	.	.	.	.	.	.	.	.	.
!	!	!	!	!	!	!	!LO:LB:g=original	!	!	!LO:SIC:s=8BL	!	!	!	!	!	!	!	!	!	!	!	!	!	!	!	!
4D\	.	8B/L	.	8B/L	.	.	8G\L	no-	.	8B\	no-	.	2r	.	.	2r	.	.	.	.	.	.	2r	.	2r	.
!	!	!	!	!	!	!	!LO:SIC:s=8AJ	!	!	!LO:SIC:s=8c#J	!LO:MO:mod=.	!	!	!	!	!	!	!	!	!	!	!	!	!	!	!
.	.	8c#/	.	8c#/	.	.	8A\	.	.	8c#\	-biſ	.	.	.	.	.	.	.	.	.	.	.	.	.	.	.
!	!	!	!	!	!	!	!LO:SIC:s=8BL	!	!	!LO:SIC:s=8dL	!LO:MO:null:mod=-bis	!	!	!	!	!	!	!	!	!	!	!	!	!	!	!
4D\	.	8d/	.	8d/	.	.	8B\	-bis	.	8d\	.	.	.	.	.	.	.	.	.	.	.	.	.	.	.	.
!	!	!	!LO:MO:mod=]]	!	!LO:MO:null:mod=]]	!	!	!	!	!LO:SIC:s=8eJ	!	!	!	!	!	!	!	!	!	!	!	!	!	!	!	!
.	.	8e/J	]	8e/J	.	.	8c#\J	.	.	8e\	.	.	.	.	.	.	.	.	.	.	.	.	.	.	.	.
=18	=18	=18	=18	=18	=18	=18	=18	=18	=18	=18	=18	=18	=18	=18	=18	=18	=18	=18	=18	=18	=18	=18	=18	=18	=18	=18
!	!LO:MO:mod=!LO&colon;DY&colon;ed=brack	!	!	!	!LO:MO:mod=!LO&colon;DY&colon;ed=brack	!	!	!	!	!	!	!	!	!	!	!	!	!	!	!	!	!	!	!	!	!
!	!null	!	!	!	!null	!	!	!	!	!	!	!	!	!	!	!	!	!	!	!	!	!	!	!	!	!
!	!LO:MO:null:mod=p	!	!LO:MO:mod=p	!	!LO:MO:null:mod=p	!	!	!	!	!	!	!	!	!	!	!	!	!	!	!	!	!	!	!	!	!
4D\	.	8d/L	pp	8f#/L 8d/	.	1ryy	8d\L	pa-	.	8f#\L	pa-	.	1r	.	.	1r	.	.	.	.	.	.	1r	.	1r	.
.	.	8c#/	.	8cc#/	.	.	8c#\	.	.	8e\	.	.	.	.	.	.	.	.	.	.	.	.	.	.	.	.
4d\	.	8B/	.	8b/	.	.	8B\	.	.	8d\	.	.	.	.	.	.	.	.	.	.	.	.	.	.	.	.
.	.	8A/J	.	8a/J	.	.	8A\J	.	.	8c#\J	.	.	.	.	.	.	.	.	.	.	.	.	.	.	.	.
!	!	!	!	!	!	!	!	!LO:MO:mod=.	!	!	!	!	!	!	!	!	!	!	!	!	!	!	!	!	!	!
4D\	.	8G/L	.	8g/L	.	.	8G\L	-cem	.	8B\L	.	.	.	.	.	.	.	.	.	.	.	.	.	.	.	.
.	.	8F#/	.	8f#/	.	.	8F#\	.	.	8A\	.	.	.	.	.	.	.	.	.	.	.	.	.	.	.	.
!	!	!	!	!	!	!	!	!LO:MO:null:mod=-cem	!	!	!	!	!	!	!	!	!	!	!	!	!	!	!	!	!	!
4D\	.	8E/	.	8e/	.	.	8E\	.	.	8G\	-cem	.	.	.	.	.	.	.	.	.	.	.	.	.	.	.
.	.	8D/J	.	8d/J	.	.	8D\J	.	.	8F#\J	.	.	.	.	.	.	.	.	.	.	.	.	.	.	.	.
=19	=19	=19	=19	=19	=19	=19	=19	=19	=19	=19	=19	=19	=19	=19	=19	=19	=19	=19	=19	=19	=19	=19	=19	=19	=19	=19
!	!	!	!	!	!	!	!	!LO:MO:mod=do-	!	!	!LO:MO:mod=do-	!	!	!LO:MO:mod=do-	!	!	!LO:MO:mod=do-	!	!	!	!	!	!	!	!	!
4r	.	4r	.	4r	.	1ryy	2D\	Do-	.	2B\	Do-	.	2g#X\	Do-	.	2ffn\	Do-	.	4r	.	4r	.	4r	.	4r	.
!	!	!	!	!	!	!	!	!	!	!	!	!	!	!	!	!	!	!	!	!LO:MO:mod=!LO&colon;DY&colon;ed=brack	!	!	!	!	!	!
!	!	!	!	!	!	!	!	!	!	!	!	!	!	!	!	!	!	!	!	!null	!	!	!	!	!	!
!	!	!	!	!	!	!	!	!	!	!	!	!	!	!	!	!	!	!	!	!LO:MO:null:mod=fp	!	!LO:DY:t=fp.	!	!	!	!
(>4G#X^<\	.	(>4g#X^<\	.	4ffn\ 4dd^<\	.	.	.	.	.	.	.	.	.	.	.	.	.	.	4d/	.	4dd\	fp	(<4g#X^>/	.	(>4gg#X^<\	.
8A\)	.	8a\)	.	8ff\ 8dd\	.	.	2d\	-na	.	2A\	-na	.	2a\	-na	.	2ff\	-na	.	8d/	.	8dd\	.	8a/)	.	8aa\)	.
8r	.	8r	.	8r	.	.	.	.	.	.	.	.	.	.	.	.	.	.	8r	.	8r	.	8r	.	8r	.
4r	.	4r	.	4r	.	.	.	.	.	.	.	.	.	.	.	.	.	.	4r	.	4r	.	4r	.	4r	.
!	!	!	!	!LO:LB:g=original	!	!	!	!	!	!	!	!	!	!	!	!	!	!	!	!	!	!	!	!	!	!
=20	=20	=20	=20	=20	=20	=20	=20	=20	=20	=20	=20	=20	=20	=20	=20	=20	=20	=20	=20	=20	=20	=20	=20	=20	=20	=20
4r	.	4r	.	4r	.	1ryy	2B-X\	no-	.	2c#\	no-	.	2e\	no-	.	2gg\	no-	.	4r	.	4r	.	4r	.	4r	.
!	!	!	!	!LO:SIC:s=(4bb-^<	!	!	!	!	!	!	!	!	!	!	!	!	!	!	!	!	!LO:SIC:s=4ee^	!	!LO:SIC:s=(4ee^	!	!	!
(<4C#X^/	.	(>4b-X^<\	.	4bb-X^<\	.	.	.	.	.	.	.	.	.	.	.	.	.	.	4a^/	.	4ee\	.	(>4ee\	.	(>4ggn^<\	.
!	!	!	!	!LO:SIC:s=8aa)	!	!	!	!	!	!	!	!	!	!	!	!	!	!	!	!	!	!	!	!	!	!
8D/)	.	8a\)	.	8aa\	.	.	2A\	-bis	.	2d\	-bis	.	2a\	-bis	.	2ffn\	-bis	.	8d/	.	8dd\	.	8dd\)	.	8ffn\)	.
8r	.	8r	.	8r	.	.	.	.	.	.	.	.	.	.	.	.	.	.	8r	.	8r	.	8r	.	8r	.
!	!	!	!	!	!	!	!	!	!	!	!	!	!	!	!	!	!	!	!	!	!LO:LB:g=original	!	!	!	!	!
4r	.	4r	.	4r	.	.	.	.	.	.	.	.	.	.	.	.	.	.	4r	.	4r	.	4r	.	4r	.
!	!	!	!	!	!	!	!	!	!	!	!	!	!	!	!	!LO:LB:g=original	!	!	!LO:LB:g=original	!	!	!	!LO:LB:g=original	!	!	!
=21	=21	=21	=21	=21	=21	=21	=21	=21	=21	=21	=21	=21	=21	=21	=21	=21	=21	=21	=21	=21	=21	=21	=21	=21	=21	=21
*	*	*tremolo	*	*tremolo	*	*	*	*	*	*	*	*	*	*	*	*	*	*	*	*	*	*	*	*	*	*
!	!	!	!	!	!	!	!	!	!	!	!LO:MO:mod=do-	!	!	!	!	!	!	!	!	!	!LO:TX:a:t=6:mod=	!	!	!	!	!
4A\	.	8e\L	.	8g/L	.	1ryy	1r	.	.	4E/	Do-	.	1r	.	.	1r	.	.	00r	.	00r	.	1r	.	1r	.
.	.	8g\	.	8a/	.	.	.	.	.	.	.	.	.	.	.	.	.	.	.	.	.	.	.	.	.	.
4r	.	8e\	.	8g/	.	.	.	.	.	4E/	-na	.	.	.	.	.	.	.	.	.	.	.	.	.	.	.
.	.	8g\J	.	8a/J	.	.	.	.	.	.	.	.	.	.	.	.	.	.	.	.	.	.	.	.	.	.
*	*	*rep	*	*	*	*	*	*	*	*	*	*	*	*	*	*	*	*	*	*	*	*	*	*	*	*
4AA/	.	8e\L	.	8g/L	.	.	.	.	.	4A/	pa-	.	.	.	.	.	.	.	.	.	.	.	.	.	.	.
.	.	8g\	.	8a/	.	.	.	.	.	.	.	.	.	.	.	.	.	.	.	.	.	.	.	.	.	.
4r	.	8e\	.	8g/	.	.	.	.	.	4C#/	.	.	.	.	.	.	.	.	.	.	.	.	.	.	.	.
.	.	8g\J	.	8a/J	.	.	.	.	.	.	.	.	.	.	.	.	.	.	.	.	.	.	.	.	.	.
*	*	*Xrep	*	*Xtremolo	*	*	*	*	*	*	*	*	*	*	*	*	*	*	*	*	*	*	*	*	*	*
*	*	*Xtremolo	*	*	*	*	*	*	*	*	*	*	*	*	*	*	*	*	*	*	*	*	*	*	*	*
!	!	!LO:LB:g=original	!	!	!	!	!	!	!	!LO:LB:g=original	!	!	!	!	!	!	!	!	!	!	!	!	!	!	!	!
=22	=22	=22	=22	=22	=22	=22	=22	=22	=22	=22	=22	=22	=22	=22	=22	=22	=22	=22	=22	=22	=22	=22	=22	=22	=22	=22
!	!	!	!	!	!	!	!	!	!LO:MO:mod=!LO&colon;DY&colon;ed=brack	!	!	!LO:MO:mod=!LO&colon;DY&colon;ed=brack	!	!	!	!	!	!	!	!	!	!	!	!	!	!
!	!	!	!	!	!	!	!	!	!null	!	!	!null	!	!	!	!	!	!	!	!	!	!	!LO:MO:mod=!LO&colon;TX&colon;b&colon;i&colon;t=dolce	!	!LO:MO:mod=!LO&colon;TX&colon;b&colon;i&colon;t=dolce	!
!	!	!	!LO:DY:mod= :t=pp&colon;	!	!	!	!	!LO:MO:mod=do-	!LO:MO:null:mod=p	!	!	!LO:MO:null:mod=p	!	!LO:MO:mod=do-	!LO:DY:rj:t=po	!	!LO:MO:mod=do-	!LO:DY:t=po	!	!	!	!	!LO:TX:b:t=dol.	!	!LO:TX:b:t=dol.	!
4D\	.	8f#\L	pp	4f#/	.	1ryy	2.D\	Do-	.	4D/	-cem	.	2f#\	Do-	p	2a\	Do-	p	.	.	.	.	2ff#\	.	2aa\	.
.	.	8d\	.	.	.	.	.	.	.	.	.	.	.	.	.	.	.	.	.	.	.	.	.	.	.	.
4r	.	8d\	.	4f#/	.	.	.	.	.	4r	.	.	.	.	.	.	.	.	.	.	.	.	.	.	.	.
.	.	8d\J	.	.	.	.	.	.	.	.	.	.	.	.	.	.	.	.	.	.	.	.	.	.	.	.
*	*	*tremolo	*	*	*	*	*	*	*	*	*	*	*	*	*	*	*	*	*	*	*	*	*	*	*	*
2r	.	8d\L	.	4d/	.	.	.	.	.	2r	.	.	4d\	-na	.	4f#/	-na	.	.	.	.	.	4dd\	.	4ff#\	.
.	.	8d\	.	.	.	.	.	.	.	.	.	.	.	.	.	.	.	.	.	.	.	.	.	.	.	.
.	.	8d\	.	4e/	.	.	4D\	-na	.	.	.	.	4e\	.	.	4g/	.	.	.	.	.	.	4ee\	.	4gg\	.
.	.	8d\J	.	.	.	.	.	.	.	.	.	.	.	.	.	.	.	.	.	.	.	.	.	.	.	.
!	!	!	!	!	!	!	!	!	!	!	!	!	!	!	!	!	!	!	!	!	!	!	!	!	!LO:LB:g=original	!
=23	=23	=23	=23	=23	=23	=23	=23	=23	=23	=23	=23	=23	=23	=23	=23	=23	=23	=23	=23	=23	=23	=23	=23	=23	=23	=23
!	!	!	!	!	!	!	!	!	!	!	!LO:MO:mod=do-	!	!	!	!	!	!	!	!	!	!	!	!	!	!	!
0r	.	8d\L	.	2f#/	.	1ryy	2D\	no-	.	4d\	Do-	.	2f#\	no-	.	2a\	no-	.	.	.	.	.	2ff#\	.	2aa\	.
.	.	8d\	.	.	.	.	.	.	.	.	.	.	.	.	.	.	.	.	.	.	.	.	.	.	.	.
.	.	8d\	.	.	.	.	.	.	.	4d\	-na	.	.	.	.	.	.	.	.	.	.	.	.	.	.	.
.	.	8d\J	.	.	.	.	.	.	.	.	.	.	.	.	.	.	.	.	.	.	.	.	.	.	.	.
*	*	*rep	*	*	*	*	*	*	*	*	*	*	*	*	*	*	*	*	*	*	*	*	*	*	*	*
.	.	8d\L	.	4g/	.	.	2D\	-bis	.	4d\	no-	.	4g\	-bis	.	4b\	-bis	.	.	.	.	.	4gg\	.	4bb\	.
.	.	8d\	.	.	.	.	.	.	.	.	.	.	.	.	.	.	.	.	.	.	.	.	.	.	.	.
.	.	8d\	.	4a/	.	.	.	.	.	4d\	-bis	.	4a\	.	.	4cc#\	.	.	.	.	.	.	4aa\	.	4ccc#\	.
.	.	8d\J	.	.	.	.	.	.	.	.	.	.	.	.	.	.	.	.	.	.	.	.	.	.	.	.
*	*	*Xtremolo	*	*	*	*	*	*	*	*	*	*	*	*	*	*	*	*	*	*	*	*	*	*	*	*
*	*	*Xrep	*	*	*	*	*	*	*	*	*	*	*	*	*	*	*	*	*	*	*	*	*	*	*	*
=24	=24	=24	=24	=24	=24	=24	=24	=24	=24	=24	=24	=24	=24	=24	=24	=24	=24	=24	=24	=24	=24	=24	=24	=24	=24	=24
!	!	!LO:TX:t=P:problem=mixed beam	!	!	!	!	!	!	!	!	!	!	!	!	!	!	!	!	!	!	!	!	!	!	!	!
.	.	8D/L	.	4.b/	.	1ryy	1D	pa-	.	2d\	pa-	.	4.b\	pa-	.	4.dd\	pa-	.	.	.	.	.	2bb\	.	2ddd\	.
.	.	8d\	.	.	.	.	.	.	.	.	.	.	.	.	.	.	.	.	.	.	.	.	.	.	.	.
.	.	8d\	.	.	.	.	.	.	.	.	.	.	.	.	.	.	.	.	.	.	.	.	.	.	.	.
.	.	8d\J	.	16cc#/LL	.	.	.	.	.	.	.	.	16cc#\LL	.	.	16ee\LL	.	.	.	.	.	.	.	.	.	.
.	.	.	.	16b/JJ	.	.	.	.	.	.	.	.	16b\JJ	.	.	16dd\JJ	.	.	.	.	.	.	.	.	.	.
*	*	*tremolo	*	*	*	*	*	*	*	*	*	*	*	*	*	*	*	*	*	*	*	*	*	*	*	*
!	!	!	!	!	!	!	!	!	!	!	!LO:MO:mod=-cem	!	!	!	!	!	!	!	!	!	!	!	!	!	!	!
.	.	8d\L	.	4a/	.	.	.	.	.	4d\	-ce(m)	.	4a\	.	.	4cc#\	.	.	.	.	.	.	4aa\	.	4ccc#\	.
.	.	8d\	.	.	.	.	.	.	.	.	.	.	.	.	.	.	.	.	.	.	.	.	.	.	.	.
*	*	*	*	*	*	*	*	*	*	*	*ij	*	*	*	*	*	*	*	*	*	*	*	*	*	*	*
!	!	!	!	!	!	!	!	!	!	!	!	!	!	!LO:MO:mod=.	!	!	!	!	!	!	!	!	!	!	!	!
.	.	8d\	.	4g/	.	.	.	.	.	4d\	pa-	.	4g\	-[[cem]]-	.	4b\	.	.	.	.	.	.	4gg\	.	4bb\	.
.	.	8d\J	.	.	.	.	.	.	.	.	.	.	.	.	.	.	.	.	.	.	.	.	.	.	.	.
*	*	*Xtremolo	*	*	*	*	*	*	*	*	*	*	*	*	*	*	*	*	*	*	*	*	*	*	*	*
!	!	!	!	!	!	!	!	!	!	!	!	!	!LO:LB:g=original	!	!	!	!	!	!	!	!	!	!	!	!	!
=25	=25	=25	=25	=25	=25	=25	=25	=25	=25	=25	=25	=25	=25	=25	=25	=25	=25	=25	=25	=25	=25	=25	=25	=25	=25	=25
!	!	!	!	!	!	!	!	!	!LO:MO:mod=!LO&colon;DY&colon;ed=brack	!	!	!LO:MO:mod=!LO&colon;DY&colon;ed=brack	!	!	!	!	!	!	!	!	!	!	!	!	!	!
!	!	!	!	!	!	!	!	!	!null	!	!	!null	!	!	!	!	!	!	!	!	!	!	!	!	!	!
!	!	!LO:TX:t=P:problem=mixed beam	!	!	!	!	!	!	!LO:MO:null:mod=f	!	!	!LO:MO:null:mod=f	!	!	!LO:DY:a	!	!	!LO:DY:t=for	!	!	!	!	!LO:SIC:s=(4ff#	!	!	!LO:DY:mod= :t=f.
8r	.	8d\L	.	8f#/L	.	1ryy	2D\	-cem	.	2d\	-cem	.	2f#\	-cem	f	2a\	-cem	f	0r	.	0r	.	4ff#\	.	(>4aa\	f
*	*	*	*	*	*	*	*	*	*	*	*Xij	*	*	*	*	*	*	*	*	*	*	*	*	*	*	*
!	!	!	!LO:MO:mod=!LO&colon;DY&colon;ed=brack	!	!LO:MO:mod=!LO&colon;DY&colon;ed=brack	!	!	!	!	!	!	!	!	!	!	!	!	!	!	!	!	!	!	!	!	!
!	!	!	!null	!	!null	!	!	!	!	!	!	!	!	!	!	!	!	!	!	!	!	!	!	!	!	!
!	!LO:DY:t=for	!	!LO:MO:null:mod=f	!	!LO:MO:null:mod=f	!	!	!	!	!	!	!	!	!	!	!	!	!	!	!	!	!	!	!	!	!
8D\L	f	8D/	.	8d/	.	.	.	.	.	.	.	.	.	.	.	.	.	.	.	.	.	.	.	.	.	.
!	!	!	!	!	!	!	!	!	!	!	!	!	!	!	!	!	!	!	!	!	!	!	!LO:SIC:s=4dd)	!	!	!
8E\	.	8E/	.	8e/	.	.	.	.	.	.	.	.	.	.	.	.	.	.	.	.	.	.	4dd\	.	4ff#\)	.
8F#\J	.	8F#/J	.	8f#/J	.	.	.	.	.	.	.	.	.	.	.	.	.	.	.	.	.	.	.	.	.	.
!LO:LB:g=original	!	!	!	!	!	!	!	!	!	!	!	!	!	!	!	!	!	!	!	!	!	!	!	!	!	!
8G\L	.	8G/L	.	8g/L	.	.	2r	.	.	2r	.	.	2r	.	.	2r	.	.	.	.	.	.	2r	.	2r	.
8A\	.	8A/	.	8a/	.	.	.	.	.	.	.	.	.	.	.	.	.	.	.	.	.	.	.	.	.	.
8B\	.	8B/	.	8b/	.	.	.	.	.	.	.	.	.	.	.	.	.	.	.	.	.	.	.	.	.	.
8c#\J	.	8c#/J	.	8cc#/J	.	.	.	.	.	.	.	.	.	.	.	.	.	.	.	.	.	.	.	.	.	.
=26	=26	=26	=26	=26	=26	=26	=26	=26	=26	=26	=26	=26	=26	=26	=26	=26	=26	=26	=26	=26	=26	=26	=26	=26	=26	=26
!	!	!	!LO:MO:mod=!LO&colon;DY&colon;ed=brack	!	!LO:MO:mod=!LO&colon;DY&colon;ed=brack	!	!	!	!	!	!	!	!	!	!	!	!	!	!	!	!	!	!	!	!	!
!	!	!	!null	!	!null	!	!	!	!	!	!	!	!	!	!	!	!	!	!	!	!	!	!	!	!	!
!	!LO:DY:t=p.	!	!LO:MO:null:mod=p	!	!LO:MO:null:mod=p	!	!	!	!	!	!	!	!	!	!	!	!	!	!	!	!	!	!	!	!	!
4d\	p	4d/	.	4dd/	.	1ryy	1r	.	.	1r	.	.	00r	.	.	00r	.	.	.	.	.	.	0r	.	0r	.
4A\	.	4A/	.	4a/	.	.	.	.	.	.	.	.	.	.	.	.	.	.	.	.	.	.	.	.	.	.
4F#\	.	4F#/	.	4f#/	.	.	.	.	.	.	.	.	.	.	.	.	.	.	.	.	.	.	.	.	.	.
4D\	.	4D/	.	4d/	.	.	.	.	.	.	.	.	.	.	.	.	.	.	.	.	.	.	.	.	.	.
!	!	!	!	!LO:LB:g=original	!	!	!	!	!	!	!	!	!	!	!	!	!	!	!	!	!	!	!	!	!	!
=27	=27	=27	=27	=27	=27	=27	=27	=27	=27	=27	=27	=27	=27	=27	=27	=27	=27	=27	=27	=27	=27	=27	=27	=27	=27	=27
!	!	!LO:TX:t=P:problem=mixed beam	!	!	!	!	!	!LO:MO:mod=do-	!	!	!LO:MO:mod=do-	!	!	!	!	!	!	!	!	!LO:DY:t=po	!	!LO:DY:t=po	!	!	!	!
4d\	.	8d\L	.	2f#/	.	1ryy	2F#\	Do-	.	2A\	Do-	.	.	.	.	.	.	.	2ff#\	p	2aa\	p	.	.	.	.
.	.	8D/	.	.	.	.	.	.	.	.	.	.	.	.	.	.	.	.	.	.	.	.	.	.	.	.
4D\	.	8d\	.	.	.	.	.	.	.	.	.	.	.	.	.	.	.	.	.	.	.	.	.	.	.	.
.	.	8d\J	.	.	.	.	.	.	.	.	.	.	.	.	.	.	.	.	.	.	.	.	.	.	.	.
*	*	*tremolo	*	*	*	*	*	*	*	*	*	*	*	*	*	*	*	*	*	*	*	*	*	*	*	*
4D\	.	8d\L	.	4d/	.	.	4D\	-na	.	4F#/	-na	.	.	.	.	.	.	.	4dd\	.	4ff#\	.	.	.	.	.
.	.	8d\	.	.	.	.	.	.	.	.	.	.	.	.	.	.	.	.	.	.	.	.	.	.	.	.
4D\	.	8d\	.	4e/	.	.	4E\	.	.	4G/	.	.	.	.	.	.	.	.	4ee\	.	4gg\	.	.	.	.	.
.	.	8d\J	.	.	.	.	.	.	.	.	.	.	.	.	.	.	.	.	.	.	.	.	.	.	.	.
*	*	*Xtremolo	*	*	*	*	*	*	*	*	*	*	*	*	*	*	*	*	*	*	*	*	*	*	*	*
!	!	!	!	!	!	!	!LO:LB:g=original	!	!	!	!	!	!	!	!	!	!	!	!	!	!	!	!	!	!	!
=28	=28	=28	=28	=28	=28	=28	=28	=28	=28	=28	=28	=28	=28	=28	=28	=28	=28	=28	=28	=28	=28	=28	=28	=28	=28	=28
!	!	!LO:TX:t=P:problem=mixed beam	!	!	!	!	!	!	!	!	!	!	!	!	!	!	!	!	!	!	!	!	!	!	!	!
4d\	.	8d\L	.	4f#/	.	1ryy	4F#\	no-	.	4A/	no-	.	.	.	.	.	.	.	4ff#^<\	.	4aa^\	.	1r	.	1r	.
.	.	8D/	.	.	.	.	.	.	.	.	.	.	.	.	.	.	.	.	.	.	.	.	.	.	.	.
4D\	.	8d\	.	8d/	.	.	4D\	-bis	.	4F#/	-bis	.	.	.	.	.	.	.	4dd\	.	4ff#\	.	.	.	.	.
.	.	8d\J	.	8r	.	.	.	.	.	.	.	.	.	.	.	.	.	.	.	.	.	.	.	.	.	.
*	*	*tremolo	*	*	*	*	*	*	*	*	*	*	*	*	*	*	*	*	*	*	*	*	*	*	*	*
4A\	.	8d\L	.	4e/	.	.	4E\	pa-	.	4G/	pa-	.	.	.	.	.	.	.	4ee^<\	.	4gg^\	.	.	.	.	.
.	.	8d\	.	.	.	.	.	.	.	.	.	.	.	.	.	.	.	.	.	.	.	.	.	.	.	.
4AA/	.	8d\	.	8c#/	.	.	4A\	.	.	4A/	.	.	.	.	.	.	.	.	4a/	.	4ee\	.	.	.	.	.
.	.	8d\J	.	8r	.	.	.	.	.	.	.	.	.	.	.	.	.	.	.	.	.	.	.	.	.	.
*	*	*Xtremolo	*	*	*	*	*	*	*	*	*	*	*	*	*	*	*	*	*	*	*	*	*	*	*	*
!	!	!LO:LB:g=original	!	!	!	!	!	!	!	!	!	!	!	!	!	!	!	!	!	!	!	!	!	!	!	!
=29	=29	=29	=29	=29	=29	=29	=29	=29	=29	=29	=29	=29	=29	=29	=29	=29	=29	=29	=29	=29	=29	=29	=29	=29	=29	=29
*	*	*	*	*tremolo	*	*	*	*	*	*	*	*	*	*	*	*	*	*	*	*	*	*	*	*	*	*
!	!	!	!LO:MO:mod=!LO&colon;DY&colon;ed=brack	!	!LO:MO:mod=!LO&colon;DY&colon;ed=brack	!	!	!	!	!	!	!	!	!	!	!	!	!	!	!LO:MO:mod=!LO&colon;DY&colon;ed=brack	!	!	!	!	!	!
!	!	!	!null	!	!null	!	!	!	!	!	!	!	!	!	!	!	!	!	!	!null	!	!	!	!	!	!
!	!LO:DY:rj:t=for	!LO:TX:t=P:problem=mixed beam	!LO:MO:null:mod=f	!	!LO:MO:null:mod=f	!	!	!	!	!	!	!	!	!	!	!	!	!	!	!LO:MO:null:mod=f	!	!LO:DY:t=fr.	!	!LO:DY:rj:t=f.	!	!LO:DY:t=fro
8D\L	f	8d\L	.	16f#/LL 16A/	.	1ryy	4D\	-cem	.	4F#/	-cem	.	.	.	.	.	.	.	4f#/	.	4dd\	f	4d/	f	4dd\	f
.	.	.	.	16f#/ 16A/	.	.	.	.	.	.	.	.	.	.	.	.	.	.	.	.	.	.	.	.	.	.
8E\	.	16D/L	.	16f#/ 16A/	.	.	.	.	.	.	.	.	.	.	.	.	.	.	.	.	.	.	.	.	.	.
.	.	16E/JJ	.	16f#/ 16A/	.	.	.	.	.	.	.	.	.	.	.	.	.	.	.	.	.	.	.	.	.	.
8F#\	.	8F#/L	.	16f#/ 16A/	.	.	4r	.	.	4r	.	.	.	.	.	.	.	.	4r	.	4r	.	4f#/	.	4ff#\	.
.	.	.	.	16f#/ 16A/	.	.	.	.	.	.	.	.	.	.	.	.	.	.	.	.	.	.	.	.	.	.
8G\J	.	16F#/L	.	16f#/ 16A/	.	.	.	.	.	.	.	.	.	.	.	.	.	.	.	.	.	.	.	.	.	.
.	.	16G/JJ	.	16f#/ 16A/	.	.	.	.	.	.	.	.	.	.	.	.	.	.	.	.	.	.	.	.	.	.
8A\L	.	8A/L	.	16f#/ 16A/	.	.	2r	.	.	2r	.	.	.	.	.	.	.	.	2r	.	2r	.	4a/	.	4aa\	.
.	.	.	.	16f#/ 16A/	.	.	.	.	.	.	.	.	.	.	.	.	.	.	.	.	.	.	.	.	.	.
8F#\	.	16A/L	.	16f#/ 16A/	.	.	.	.	.	.	.	.	.	.	.	.	.	.	.	.	.	.	.	.	.	.
.	.	16F#/JJ	.	16f#/JJ 16A/	.	.	.	.	.	.	.	.	.	.	.	.	.	.	.	.	.	.	.	.	.	.
8G\	.	8G/L	.	16g/LL 16A/	.	.	.	.	.	.	.	.	.	.	.	.	.	.	.	.	.	.	4g/	.	4a/	.
.	.	.	.	16g/ 16A/	.	.	.	.	.	.	.	.	.	.	.	.	.	.	.	.	.	.	.	.	.	.
8E\J	.	16G/L	.	16g/ 16A/	.	.	.	.	.	.	.	.	.	.	.	.	.	.	.	.	.	.	.	.	.	.
.	.	16E/JJ	.	16g/JJ 16A/	.	.	.	.	.	.	.	.	.	.	.	.	.	.	.	.	.	.	.	.	.	.
=30	=30	=30	=30	=30	=30	=30	=30	=30	=30	=30	=30	=30	=30	=30	=30	=30	=30	=30	=30	=30	=30	=30	=30	=30	=30	=30
!	!	!LO:SIC:s=(8DL	!	!	!	!	!	!	!	!	!	!	!	!	!	!	!	!	!	!	!LO:TX:a:t=6:mod=	!	!LO:TX:t=P:problem=mixed beam	!	!	!
(>8D\L	.	8D/L	.	16f#/LL 16A/	.	1ryy	0r	.	.	0r	.	.	0r	.	.	0r	.	.	00r	.	00r	.	8f#/L	.	8dd\L	.
.	.	.	.	16f#/ 16A/	.	.	.	.	.	.	.	.	.	.	.	.	.	.	.	.	.	.	.	.	.	.
16E\L	.	16E/L	.	16f#/ 16A/	.	.	.	.	.	.	.	.	.	.	.	.	.	.	.	.	.	.	8dd\J	.	8ff#\J	.
16F#\JJ	.	16F#/JJ	.	16f#/ 16A/	.	.	.	.	.	.	.	.	.	.	.	.	.	.	.	.	.	.	.	.	.	.
*	*	*	*	*	*	*	*	*	*	*	*	*	*	*	*	*	*	*	*	*	*	*	*tremolo	*	*tremolo	*
16G\LL	.	16G/LL	.	16f#/ 16A/	.	.	.	.	.	.	.	.	.	.	.	.	.	.	.	.	.	.	8dd\L	.	8ff#\L	.
16A\	.	16A/	.	16f#/ 16A/	.	.	.	.	.	.	.	.	.	.	.	.	.	.	.	.	.	.	.	.	.	.
16B\	.	16B/	.	16f#/ 16A/	.	.	.	.	.	.	.	.	.	.	.	.	.	.	.	.	.	.	8dd\	.	8ff#\	.
!	!	!LO:SIC:s=16c#JJ)	!	!	!	!	!	!	!	!	!	!	!	!	!	!	!	!	!	!	!	!	!	!	!	!
16c#\JJ)	.	16c#/JJ	.	16f#/JJ 16A/	.	.	.	.	.	.	.	.	.	.	.	.	.	.	.	.	.	.	.	.	.	.
!LO:SIC:s=(8dL	!	!LO:SIC:s=(8dL	!	!	!	!	!	!	!	!	!	!	!	!	!	!	!	!	!	!	!	!	!	!	!	!
8d\L	.	8d/L	.	16f#/LL 16A/	.	.	.	.	.	.	.	.	.	.	.	.	.	.	.	.	.	.	8dd\	.	8ff#\	.
.	.	.	.	16f#/ 16A/	.	.	.	.	.	.	.	.	.	.	.	.	.	.	.	.	.	.	.	.	.	.
!LO:SIC:s=16c#L	!	!	!	!	!	!	!	!	!	!	!	!	!	!	!	!	!	!	!	!	!	!	!	!	!	!
(>16c#\L	.	16c#/L	.	16f#/ 16A/	.	.	.	.	.	.	.	.	.	.	.	.	.	.	.	.	.	.	8dd\	.	8ff#\	.
16B\JJ	.	16B/JJ	.	16f#/ 16A/	.	.	.	.	.	.	.	.	.	.	.	.	.	.	.	.	.	.	.	.	.	.
16A\LL	.	16A/LL	.	16f#/ 16A/	.	.	.	.	.	.	.	.	.	.	.	.	.	.	.	.	.	.	8dd\	.	8ff#\	.
16G\	.	16G/	.	16f#/ 16A/	.	.	.	.	.	.	.	.	.	.	.	.	.	.	.	.	.	.	.	.	.	.
!LO:SIC:s=16F#	!	!	!	!	!	!	!	!	!	!	!	!	!	!	!	!	!	!	!	!	!	!	!	!	!	!
16F#\)	.	16F#/	.	16f#/ 16A/	.	.	.	.	.	.	.	.	.	.	.	.	.	.	.	.	.	.	8dd\J	.	8ff#\J	.
!LO:SIC:s=16EJJ)	!	!LO:SIC:s=16EJJ)	!	!	!	!	!	!	!	!	!	!	!	!	!	!	!	!	!	!	!	!	!	!	!	!
16E\JJ	.	16E/JJ	.	16f#/JJ 16A/	.	.	.	.	.	.	.	.	.	.	.	.	.	.	.	.	.	.	.	.	.	.
*	*	*	*	*Xtremolo	*	*	*	*	*	*	*	*	*	*	*	*	*	*	*	*	*	*	*Xtremolo	*	*Xtremolo	*
=31	=31	=31	=31	=31	=31	=31	=31	=31	=31	=31	=31	=31	=31	=31	=31	=31	=31	=31	=31	=31	=31	=31	=31	=31	=31	=31
4D\	.	8.D/L	.	8.f#/L 8.A/	.	1ryy	.	.	.	.	.	.	.	.	.	.	.	.	.	.	.	.	4dd\	.	4ff#\	.
.	.	16D/Jk	.	16d/Jk	.	.	.	.	.	.	.	.	.	.	.	.	.	.	.	.	.	.	.	.	.	.
4B\	.	8.B/L	.	8.B/L	.	.	.	.	.	.	.	.	.	.	.	.	.	.	.	.	.	.	4r	.	4r	.
.	.	16B/Jk	.	16B/Jk	.	.	.	.	.	.	.	.	.	.	.	.	.	.	.	.	.	.	.	.	.	.
4G#X\	.	8.G#X/L	.	8.G#X/L	.	.	.	.	.	.	.	.	.	.	.	.	.	.	.	.	.	.	2r	.	2r	.
.	.	16G#/Jk	.	16G#/Jk	.	.	.	.	.	.	.	.	.	.	.	.	.	.	.	.	.	.	.	.	.	.
!	!	!LO:TX:t=P:problem=mixed beam	!	!	!	!	!	!	!	!	!	!	!	!	!	!	!	!	!	!	!	!	!	!	!	!
4E\	.	8E/L	.	8.e/L	.	.	.	.	.	.	.	.	.	.	.	.	.	.	.	.	.	.	.	.	.	.
.	.	8e\J	.	.	.	.	.	.	.	.	.	.	.	.	.	.	.	.	.	.	.	.	.	.	.	.
.	.	.	.	16e/Jk	.	.	.	.	.	.	.	.	.	.	.	.	.	.	.	.	.	.	.	.	.	.
!LO:LB:g=original	!	!	!	!	!	!	!	!	!	!	!	!	!	!	!	!	!	!	!	!	!	!	!	!	!	!
=32	=32	=32	=32	=32	=32	=32	=32	=32	=32	=32	=32	=32	=32	=32	=32	=32	=32	=32	=32	=32	=32	=32	=32	=32	=32	=32
!	!LO:MO:mod=!LO&colon;DY&colon;ed=brack	!	!LO:MO:mod=!LO&colon;DY&colon;ed=brack	!	!	!	!	!	!	!	!	!	!	!	!	!	!	!	!	!	!	!	!	!	!	!
!	!null	!	!null	!	!	!	!	!	!	!	!	!	!	!	!	!	!	!	!	!	!	!	!	!	!	!
!	!LO:MO:null:mod=p	!LO:TX:t=P:problem=mixed beam	!LO:MO:null:mod=p	!	!	!	!	!	!	!	!	!	!	!	!	!	!	!	!	!	!	!	!	!	!	!
4A\	.	8A/L	.	8A/	.	1ryy	2r	.	.	2r	.	.	4r	.	.	4r	.	.	.	.	.	.	4r	.	4r	.
.	.	8a\J	.	8r	.	.	.	.	.	.	.	.	.	.	.	.	.	.	.	.	.	.	.	.	.	.
*	*	*tremolo	*	*	*	*	*	*	*	*	*	*	*	*	*	*	*	*	*	*	*	*	*	*	*	*
!	!	!	!	!	!	!	!	!	!	!	!	!	!	!	!LO:MO:mod=!LO&colon;DY&colon;ed=brack	!	!	!	!	!	!	!	!	!	!	!
!	!	!	!	!	!	!	!	!	!	!	!	!	!	!	!null	!	!	!	!	!	!	!	!LO:MO:mod=!LO&colon;TX&colon;b&colon;i&colon;t=dolce	!	!LO:MO:mod=!LO&colon;TX&colon;b&colon;i&colon;t=dolce	!
!	!	!	!	!	!LO:DY	!	!	!	!	!	!	!	!	!LO:MO:mod=do-	!LO:MO:null:mod=p	!	!LO:MO:mod=do-	!LO:DY:rj:t=po	!	!	!	!	!LO:TX:b:t=dol.	!	!LO:TX:b:t=dol.	!
4r	.	8a\L	.	(<4c#/	p	.	.	.	.	.	.	.	4cc#\	Do-	.	4ee\	Do-	p	.	.	.	.	4cc#\	.	4ee\	.
.	.	8a\	.	.	.	.	.	.	.	.	.	.	.	.	.	.	.	.	.	.	.	.	.	.	.	.
!	!	!	!	!	!	!	!	!	!LO:MO:mod=!LO&colon;DY&colon;ed=brack	!	!	!	!	!	!	!	!	!	!	!	!	!	!	!	!	!
!	!	!	!	!	!	!	!	!LO:MO:mod=do-	!null	!	!LO:MO:mod=do-	!LO:DY:t=pp.	!	!	!	!	!	!	!	!	!	!	!	!	!	!
!	!	!	!	!	!	!	!	!	!LO:MO:null:mod=p	!	!	!LO:MO:mod=p	!	!	!	!	!	!	!	!	!	!	!	!	!	!
4AA/	.	8a\	.	4B/)	.	.	4AA/	Do-	.	4A\	Do-	pp	4a\	-na	.	4cc#\	-na	.	.	.	.	.	4a\	.	4cc#\	.
.	.	8a\	.	.	.	.	.	.	.	.	.	.	.	.	.	.	.	.	.	.	.	.	.	.	.	.
4r	.	8a\	.	4A/	.	.	4AA/	-na	.	4A\	-na	.	4b\	.	.	4dd\	.	.	.	.	.	.	4b\	.	4dd\	.
.	.	8a\J	.	.	.	.	.	.	.	.	.	.	.	.	.	.	.	.	.	.	.	.	.	.	.	.
=33	=33	=33	=33	=33	=33	=33	=33	=33	=33	=33	=33	=33	=33	=33	=33	=33	=33	=33	=33	=33	=33	=33	=33	=33	=33	=33
!	!	!	!	!	!	!	!	!	!	!	!	!	!LO:SIC:s=2cc#	!	!	!	!	!	!	!	!	!	!LO:SIC:s=(2cc#	!	!	!
4A\	.	8a\L	.	2c#/	.	1ryy	2AA/	no-	.	2A\	no-	.	2cc#^<\	no-	.	2ee\	no-	.	.	.	.	.	2cc#\	.	(>2ee\	.
.	.	8a\	.	.	.	.	.	.	.	.	.	.	.	.	.	.	.	.	.	.	.	.	.	.	.	.
4r	.	8a\	.	.	.	.	.	.	.	.	.	.	.	.	.	.	.	.	.	.	.	.	.	.	.	.
.	.	8a\	.	.	.	.	.	.	.	.	.	.	.	.	.	.	.	.	.	.	.	.	.	.	.	.
!	!	!	!	!	!	!	!	!	!	!	!	!	!	!	!	!	!	!	!	!	!	!	!LO:MO:mod=s=4a)	!	!	!
4AA/	.	8a\	.	2A/	.	.	2AA/	-bis	.	2A\	-bis	.	2a\	-bis	.	2cc#\	-bis	.	.	.	.	.	2a\	.	4cc#\)	.
.	.	8a\	.	.	.	.	.	.	.	.	.	.	.	.	.	.	.	.	.	.	.	.	.	.	.	.
!	!	!	!	!	!	!	!	!	!	!	!	!	!	!	!	!	!	!	!	!	!	!	!LO:MO:null:mod=4r	!	!	!
4r	.	8a\	.	.	.	.	.	.	.	.	.	.	.	.	.	.	.	.	.	.	.	.	.	.	4r	.
.	.	8a\J	.	.	.	.	.	.	.	.	.	.	.	.	.	.	.	.	.	.	.	.	.	.	.	.
*	*	*Xtremolo	*	*	*	*	*	*	*	*	*	*	*	*	*	*	*	*	*	*	*	*	*	*	*	*
!	!	!	!	!LO:LB:g=original	!	!	!	!	!	!	!	!	!	!	!	!	!	!	!	!	!	!	!LO:LB:g=original	!	!	!
=34	=34	=34	=34	=34	=34	=34	=34	=34	=34	=34	=34	=34	=34	=34	=34	=34	=34	=34	=34	=34	=34	=34	=34	=34	=34	=34
*	*	*	*	*	*	*	*	*	*	*	*ij	*	*	*ij	*	*	*	*	*	*	*	*	*	*	*	*
!	!	!LO:TX:t=P:problem=mixed beam	!	!	!	!	!	!LO:MO:mod=[do-	!	!	!LO:MO:mod=do-	!	!	!LO:MO:mod=do-	!LO:DY:rj:mod= :t=for	!	!	!	!	!	!	!	!	!	!	!
4A\	.	8A/L	.	4G#X/	.	1ryy	4AA/	pa-	.	4A\	Do-	.	4g#X\	Do-	f	4b\	do-	.	0r	.	0r	.	4g#X/	.	4b\	.
.	.	8a\J	.	.	.	.	.	.	.	.	.	.	.	.	.	.	.	.	.	.	.	.	.	.	.	.
*	*	*tremolo	*	*	*	*	*	*	*	*	*	*	*	*	*	*	*	*	*	*	*	*	*	*	*	*
!	!	!	!	!	!	!	!	!LO:MO:mod=-na	!	!	!	!	!	!	!	!	!	!	!	!	!	!	!	!	!	!
4r	.	8a\L	.	4G#/	.	.	4AA/	-ce(m)	.	4A\	-na	.	4g#\	-na	.	4b\	-na	.	.	.	.	.	4g#/	.	4b\	.
.	.	8a\	.	.	.	.	.	.	.	.	.	.	.	.	.	.	.	.	.	.	.	.	.	.	.	.
!	!	!	!	!	!	!	!	!LO:MO:mod=no-	!	!	!	!	!	!	!	!	!	!	!	!	!	!	!	!	!	!
4AA/	.	8a\	.	4B/	.	.	4AA/	do-	.	4A\	no-	.	4a\	no-	.	4cc#\	no-	.	.	.	.	.	4a/	.	4cc#\	.
.	.	8a\	.	.	.	.	.	.	.	.	.	.	.	.	.	.	.	.	.	.	.	.	.	.	.	.
!	!	!	!	!	!	!	!	!LO:MO:mod=-bis]	!	!	!	!	!	!	!	!	!	!	!	!	!	!	!	!	!	!
4r	.	8a\	.	4B/	.	.	4AA/	-na	.	4A\	-bis	.	4b\	-bis	.	4dd\	-bis	.	.	.	.	.	4b/	.	4dd\	.
.	.	8a\J	.	.	.	.	.	.	.	.	.	.	.	.	.	.	.	.	.	.	.	.	.	.	.	.
*	*	*	*	*	*	*	*	*	*	*	*Xij	*	*	*Xij	*	*	*	*	*	*	*	*	*	*	*	*
!	!	!	!	!	!	!	!	!	!	!LO:LB:g=original	!	!	!	!	!	!	!	!	!	!	!	!	!	!	!	!
=35	=35	=35	=35	=35	=35	=35	=35	=35	=35	=35	=35	=35	=35	=35	=35	=35	=35	=35	=35	=35	=35	=35	=35	=35	=35	=35
!	!	!	!	!	!	!	!	!	!	!	!	!	!	!	!	!LO:SIC:s=2ff#	!	!	!	!	!	!	!LO:SIC:s=(2dd^	!	!	!
4A\	.	8a\L	.	[<2d^</	.	1ryy	2AA/	pa-	.	2A\	pa-	.	2dd\	pa-	.	2ff#^<\	pa-	.	.	.	.	.	2dd^<\	.	(>2ff#^<\	.
.	.	8a\	.	.	.	.	.	.	.	.	.	.	.	.	.	.	.	.	.	.	.	.	.	.	.	.
4r	.	8a\	.	.	.	.	.	.	.	.	.	.	.	.	.	.	.	.	.	.	.	.	.	.	.	.
.	.	8a\	.	.	.	.	.	.	.	.	.	.	.	.	.	.	.	.	.	.	.	.	.	.	.	.
!	!	!	!	!	!	!	!	!	!	!	!	!	!	!	!	!	!	!	!	!	!	!	!LO:SIC:s=4cc#)	!	!	!
4AA/	.	8a\	.	8d/]	.	.	4AA/	-cem	.	4A\	-cem	.	4cc#\	-cem	.	4ee\	-cem	.	.	.	.	.	4cc#\	.	4ee\)	.
.	.	8a\J	.	8r	.	.	.	.	.	.	.	.	.	.	.	.	.	.	.	.	.	.	.	.	.	.
*	*	*Xtremolo	*	*	*	*	*	*	*	*	*	*	*	*	*	*	*	*	*	*	*	*	*	*	*	*
4r	.	8c#\L	.	4r	.	.	4r	.	.	4r	.	.	4r	.	.	4r	.	.	.	.	.	.	4r	.	4r	.
.	.	8e\J	.	.	.	.	.	.	.	.	.	.	.	.	.	.	.	.	.	.	.	.	.	.	.	.
!	!	!LO:LB:g=original	!	!	!	!	!	!	!	!	!	!	!	!	!	!LO:LB:g=original	!	!	!	!	!	!	!	!	!LO:LB:g=original	!
=36	=36	=36	=36	=36	=36	=36	=36	=36	=36	=36	=36	=36	=36	=36	=36	=36	=36	=36	=36	=36	=36	=36	=36	=36	=36	=36
!	!	!	!	!	!LO:MO:mod=!LO&colon;DY&colon;ed=brack	!	!	!	!	!	!	!	!	!	!	!	!	!	!	!	!	!	!	!	!	!
!	!	!	!	!	!null	!	!	!	!	!	!	!	!	!	!	!	!	!	!	!	!	!	!	!	!	!
!	!LO:MO:null:mod=f	!	!	!	!LO:MO:null:mod=f	!	!	!	!	!	!	!	!	!	!	!	!	!	!	!	!	!	!	!	!	!
4A\	.	8a\L	f	8e/ 8c#/	.	1ryy	2r	.	.	2r	.	.	2r	.	.	2r	.	.	2r	.	2r	.	2r	.	2r	.
.	.	8e\	.	4e/ 4c#/	.	.	.	.	.	.	.	.	.	.	.	.	.	.	.	.	.	.	.	.	.	.
4AA/	.	8c#\	.	.	.	.	.	.	.	.	.	.	.	.	.	.	.	.	.	.	.	.	.	.	.	.
.	.	8A\J	.	8e/ 8c#/	.	.	.	.	.	.	.	.	.	.	.	.	.	.	.	.	.	.	.	.	.	.
*tremolo	*	*tremolo	*	*	*	*	*	*	*	*	*	*	*	*	*	*	*	*	*	*	*	*	*	*	*	*
!	!	!	!	!	!	!	!	!	!LO:MO:mod=!LO&colon;DY&colon;ed=brack	!	!	!LO:MO:mod=!LO&colon;DY&colon;ed=brack	!	!	!LO:MO:mod=!LO&colon;DY&colon;ed=brack	!	!	!	!	!	!	!	!	!LO:MO:mod=!LO&colon;DY&colon;ed=brack	!	!LO:MO:mod=!LO&colon;DY&colon;ed=brack
!	!	!	!	!	!	!	!	!	!null	!	!	!null	!	!	!null	!	!	!	!	!	!	!	!	!null	!	!null
!	!LO:DY:mod= :t=for	!	!	!	!	!	!LO:SIC:s=8.E	!LO:MO:mod=do-	!LO:MO:null:mod=f	!LO:SIC:s=8.B	!LO:MO:mod=do-	!LO:MO:null:mod=f	!	!LO:MO:mod=do-	!LO:MO:null:mod=f	!	!LO:MO:mod=do-	!LO:DY:rj:t=fr.	!	!LO:DY:t=fp.:mod=f	!	!LO:DY:t=f.	!	!LO:MO:null:mod=f	!	!LO:MO:null:mod=f
8G#X\L	f	8B/L	.	8e/L 8d/	.	.	8.E\L	Do-	.	8.B\L	Do-	.	8.g#X	Do-	.	8.dd\	Do-	f	2dd\	fp	2ee\	f	4dd\	.	2bb\	.
8E\	.	8G#X/	.	8e/ 8d/	.	.	.	.	.	.	.	.	.	.	.	.	.	.	.	.	.	.	.	.	.	.
!	!	!	!	!	!	!	!LO:SIC:s=16E	!	!	!LO:SIC:s=16B	!	!	!	!	!	!	!	!	!	!	!	!	!	!	!	!
.	.	.	.	.	.	.	16E\Jk	-na	.	16B\Jk	-na	.	16g#\	-na	.	16dd\	-na	.	.	.	.	.	.	.	.	.
!	!	!	!	!	!	!	!LO:SIC:s=8E	!	!	!LO:SIC:s=8B	!	!	!	!	!	!	!	!	!	!	!	!	!	!	!	!
8G#\	.	8B/	.	8e/ 8B/	.	.	8E\L	no-	.	8B\L	no-	.	8g#\	no-	.	8dd\	no-	.	.	.	.	.	4ee\	.	.	.
!	!	!	!	!	!	!	!LO:SIC:s=8E	!	!	!LO:SIC:s=8B	!	!	!	!	!	!	!	!	!	!	!	!	!	!	!	!
8E\J	.	8G#X/J	.	8e/J 8B/	.	.	8E\J	-biſ	.	8B\J	-bis	.	8g#\	-bis	.	8dd\	-bis	.	.	.	.	.	.	.	.	.
*	*	*Xtremolo	*	*	*	*	*	*	*	*	*	*	*	*	*	*	*	*	*	*	*	*	*	*	*	*
=37	=37	=37	=37	=37	=37	=37	=37	=37	=37	=37	=37	=37	=37	=37	=37	=37	=37	=37	=37	=37	=37	=37	=37	=37	=37	=37
!	!	!	!	!	!	!	!	!	!	!	!	!	!	!	!LO:DY:mod= :t=po	!	!	!	!	!	!	!	!	!	!	!
8A\L	.	8A/L	.	8e/ 8c#/	.	1ryy	4A\	pa-	.	4e\	pa-	.	4a\	pa-	p	4cc#\	pa-	.	2a/	.	2ee\	.	2cc#\	.	2aa\	.
8E\	.	8c#/	.	4e/ 4c#/	.	.	.	.	.	.	.	.	.	.	.	.	.	.	.	.	.	.	.	.	.	.
!	!	!	!	!	!	!	!	!LO:MO:mod=-cem	!	!	!LO:MO:mod=-cem	!	!	!	!	!	!	!	!	!	!	!	!	!	!	!
8A\	.	8e/	.	.	.	.	4AA/	-ce(m)	.	4e\	-ce(m)	.	4a\	-cem	.	4cc#\	-cem	.	.	.	.	.	.	.	.	.
8E\J	.	8c#/J	.	8e/ 8c#/	.	.	.	.	.	.	.	.	.	.	.	.	.	.	.	.	.	.	.	.	.	.
!	!	!	!	!	!	!	!	!	!	!	!	!	!	!LO:MO:mod=*null:null	!	!	!	!	!	!	!	!	!	!	!	!
*	*	*tremolo	*	*	*	*	*	*	*	*	*ij	*	*	*ij	*	*	*	*	*	*	*	*	*	*	*	*
!	!	!	!	!	!	!	!	!	!	!	!	!	!	!LO:MO:mod=do-	!	!	!	!	!	!	!	!	!	!	!	!
8G#X\L	.	8B/L	.	8e/L 8B/	.	.	4E\	do-	.	4B\	do-	.	4g#X\	pa-	.	4dd\	do-	.	2dd\	.	2ee\	.	2gg#X\	.	2bb\	.
8E\	.	8G#X/	.	8e/ 8B/	.	.	.	.	.	.	.	.	.	.	.	.	.	.	.	.	.	.	.	.	.	.
!	!	!	!	!	!	!	!	!	!	!	!	!	!	!LO:MO:mod=-na	!	!	!	!	!	!	!	!	!	!	!	!
8G#\	.	8B/	.	8e/ 8G#X/	.	.	4E\	-na	.	4B\	-na	.	4g#\	-cem	.	4dd\	-na	.	.	.	.	.	.	.	.	.
8E\J	.	8G#X/J	.	8e/J 8G#/	.	.	.	.	.	.	.	.	.	.	.	.	.	.	.	.	.	.	.	.	.	.
!	!	!	!	!	!	!	!LO:LB:g=original	!	!	!	!	!	!LO:LB:g=original	!	!	!	!	!	!	!	!	!	!	!	!	!
=38	=38	=38	=38	=38	=38	=38	=38	=38	=38	=38	=38	=38	=38	=38	=38	=38	=38	=38	=38	=38	=38	=38	=38	=38	=38	=38
!	!	!LO:SIC:v:s=8G#L	!	!	!	!	!	!	!	!	!	!	!LO:SIC:v:s=4g#	!LO:MO:mod=no-	!	!	!	!	!	!	!	!	!	!	!	!
8B\L	.	8G/L	.	8e/L 8d/	.	1ryy	4E\	no-	.	4B\	no-	.	4g\	pa-	.	4dd\	no-	.	2dd\	.	2ee\	.	2ee\	.	2gg#X\	.
8E\	.	8B/	.	8e/ 8d/	.	.	.	.	.	.	.	.	.	.	.	.	.	.	.	.	.	.	.	.	.	.
!	!	!LO:SIC:v:s=8G#	!	!	!	!	!	!	!	!	!	!	!LO:SIC:v:s=4g#	!LO:MO:mod=-bis	!	!	!	!	!	!	!	!	!	!	!	!
8B\	.	8G/	.	8e/ 8d/	.	.	4e\	-bis	.	4B\	-bis	.	4g\	-cem	.	4dd\	-bis	.	.	.	.	.	.	.	.	.
8E\J	.	8B/J	.	8e/J 8d/	.	.	.	.	.	.	.	.	.	.	.	.	.	.	.	.	.	.	.	.	.	.
*	*	*	*	*Xtremolo	*	*	*	*	*	*	*	*	*	*	*	*	*	*	*	*	*	*	*	*	*	*
!LO:SIC:v:s=8G#L	!	!	!	!	!	!	!	!	!	!	!	!	!LO:SIC:v:s=4g#	!	!	!	!	!	!	!	!	!	!	!	!	!
8G\L	.	8E/L	.	8e/L 8B/	.	.	4e\	pa-	.	4B\	pa-	.	4g\	pa-	.	4dd\	pa-	.	2dd\	.	2ee\	.	2gg#X\	.	2bb\	.
!	!	!LO:SIC:v:s=8G#	!	!	!	!	!	!	!	!	!	!	!	!	!	!	!	!	!	!	!	!	!	!	!	!
8E\	.	8G/	.	8e/J 8B/	.	.	.	.	.	.	.	.	.	.	.	.	.	.	.	.	.	.	.	.	.	.
!LO:SIC:v:s=8G#	!	!	!	!	!	!	!	!	!	!	!	!	!LO:SIC:v:s=4g#	!	!	!	!	!	!	!	!	!	!	!	!	!
8G\	.	8E/	.	8e/L 8G#X/	.	.	4E\	-cem	.	4B\	-cem	.	4g\	-cem	.	4dd\	-cem	.	.	.	.	.	.	.	.	.
!	!	!LO:SIC:v:s=8G#J	!	!	!	!	!	!	!	!	!	!	!	!	!	!	!	!	!	!	!	!	!	!	!	!
8E\J	.	8G/J	.	8e/J 8G#/	.	.	.	.	.	.	.	.	.	.	.	.	.	.	.	.	.	.	.	.	.	.
!	!	!	!	!	!	!	!	!	!	!	!	!	!	!LO:MO:mod=*null:null	!	!	!	!	!	!	!	!	!	!	!	!
*Xtremolo	*	*Xtremolo	*	*	*	*	*	*	*	*	*Xij	*	*	*Xij	*	*	*	*	*	*	*	*	*	*	*	*
=39	=39	=39	=39	=39	=39	=39	=39	=39	=39	=39	=39	=39	=39	=39	=39	=39	=39	=39	=39	=39	=39	=39	=39	=39	=39	=39
!	!LO:DY:t=p.	!	!	!	!	!	!	!LO:MO:mod=do-	!	!	!LO:MO:mod=do-	!	!	!LO:MO:mod=do-	!	!	!LO:MO:mod=do-	!LO:DY:mod= :t=po	!	!	!	!	!	!LO:DY:rj:t=po.	!	!LO:DY:t=po.
4A\	p	8r	.	8e/L 8A/	.	1ryy	2c#\	Do-	.	2e\	Do-	.	2a\	Do-	.	2cc#\	Do-	p	4a/	.	4ee\	.	4cc#\	p	4aa\	p
!	!	!	!LO:DY	!	!LO:MO:null:mod=p	!	!	!	!	!	!	!	!	!	!	!	!	!	!	!	!	!	!	!	!	!
.	.	8c#/L	p	8e/	.	.	.	.	.	.	.	.	.	.	.	.	.	.	.	.	.	.	.	.	.	.
!	!	!	!	!	!LO:DY:rj:mod= :t=po	!	!	!	!	!	!	!	!	!	!	!	!	!	!	!	!	!	!LO:SIC:s=(4a	!	!	!
4r	.	8A/	.	8e/ 8c#/	p	.	.	.	.	.	.	.	.	.	.	.	.	.	4r	.	4r	.	4a\	.	(>4cc#\	.
.	.	8c#/J	.	8e/J	.	.	.	.	.	.	.	.	.	.	.	.	.	.	.	.	.	.	.	.	.	.
*	*	*tremolo	*	*tremolo	*	*	*	*	*	*	*	*	*	*	*	*	*	*	*	*	*	*	*	*	*	*
4AA/	.	8A/L	.	8c#/L	.	.	4A\	-na	.	4d\	-na	.	4cc#\	-na	.	4ee\	-na	.	2r	.	2r	.	4cc#\	.	4ee\	.
.	.	8c#/	.	8e/	.	.	.	.	.	.	.	.	.	.	.	.	.	.	.	.	.	.	.	.	.	.
!	!	!	!	!	!	!	!	!	!	!	!	!	!	!	!	!	!	!	!	!	!	!	!LO:SIC:s=4a)	!	!	!
4r	.	8A/	.	8c#/	.	.	4c#\	.	.	4e\	.	.	4a\	.	.	4cc#\	.	.	.	.	.	.	4a\	.	4cc#\)	.
.	.	8c#/J	.	8e/J	.	.	.	.	.	.	.	.	.	.	.	.	.	.	.	.	.	.	.	.	.	.
!	!	!	!	!LO:LB:g=original	!	!	!	!	!	!	!	!	!	!	!	!	!	!	!	!	!	!	!	!	!	!
=40	=40	=40	=40	=40	=40	=40	=40	=40	=40	=40	=40	=40	=40	=40	=40	=40	=40	=40	=40	=40	=40	=40	=40	=40	=40	=40
!	!	!	!	!	!	!	!	!	!	!	!	!	!	!	!	!	!	!	!LO:TX:a:t=3:mod=	!	!	!	!	!	!	!
4E\	.	8B/L	.	8d/L	.	1ryy	2B\	no-	.	2d\	no-	.	2g#X\	no-	.	2b\	no-	.	0r	.	0r	.	2g#X/	.	2b\	.
.	.	8d/	.	8e/	.	.	.	.	.	.	.	.	.	.	.	.	.	.	.	.	.	.	.	.	.	.
4r	.	8B/	.	8d/	.	.	.	.	.	.	.	.	.	.	.	.	.	.	.	.	.	.	.	.	.	.
.	.	8d/J	.	8e/J	.	.	.	.	.	.	.	.	.	.	.	.	.	.	.	.	.	.	.	.	.	.
*	*	*rep	*	*	*	*	*	*	*	*	*	*	*	*	*	*	*	*	*	*	*	*	*	*	*	*
4e\	.	8B/L	.	8d/L	.	.	4G#X\	-bis	.	4B\	-bis	.	4b\	-bis	.	4dd\	-bis	.	.	.	.	.	4b/	.	4dd\	.
.	.	8d/	.	8e/	.	.	.	.	.	.	.	.	.	.	.	.	.	.	.	.	.	.	.	.	.	.
4r	.	8B/	.	8d/	.	.	4B\	.	.	4d\	.	.	4g#\	.	.	4b\	.	.	.	.	.	.	4g#/	.	4b\	.
.	.	8d/J	.	8e/J	.	.	.	.	.	.	.	.	.	.	.	.	.	.	.	.	.	.	.	.	.	.
*	*	*Xrep	*	*	*	*	*	*	*	*	*	*	*	*	*	*	*	*	*	*	*	*	*	*	*	*
!LO:LB:g=original	!	!	!	!	!	!	!	!	!	!	!	!	!	!	!	!	!	!	!	!	!	!	!	!	!	!
=41	=41	=41	=41	=41	=41	=41	=41	=41	=41	=41	=41	=41	=41	=41	=41	=41	=41	=41	=41	=41	=41	=41	=41	=41	=41	=41
!	!	!	!	!	!	!	!	!	!	!	!	!	!	!	!LO:DY:rj:mod= :t=ffor	!	!	!	!	!	!	!	!	!	!	!
4A\	.	8A/L	.	8c#/L	.	1ryy	2A\	pa-	.	2c#\	pa-	.	2a\	pa-	ff	2cc#\	pa-	.	.	.	.	.	2a/	.	2cc#\	.
.	.	8c#/	.	8e/	.	.	.	.	.	.	.	.	.	.	.	.	.	.	.	.	.	.	.	.	.	.
4AA/	.	8A/	.	8c#/	.	.	.	.	.	.	.	.	.	.	.	.	.	.	.	.	.	.	.	.	.	.
.	.	8c#/J	.	8e/J	.	.	.	.	.	.	.	.	.	.	.	.	.	.	.	.	.	.	.	.	.	.
*	*	*Xtremolo	*	*Xtremolo	*	*	*	*	*	*	*	*	*	*	*	*	*	*	*	*	*	*	*	*	*	*
4GG#X/	.	8B/L	.	8d/L	.	.	4B\	.	.	4d\	.	.	4b\	.	.	4dd\	.	.	.	.	.	.	4b/	.	4dd\	.
.	.	8d/	.	8e/	.	.	.	.	.	.	.	.	.	.	.	.	.	.	.	.	.	.	.	.	.	.
4AA/	.	8A/	.	8c#/	.	.	4c#\	.	.	4e\	.	.	4a\	.	.	4cc#\	.	.	.	.	.	.	4a/	.	4cc#\	.
.	.	8c#/J	.	8e/J	.	.	.	.	.	.	.	.	.	.	.	.	.	.	.	.	.	.	.	.	.	.
=42	=42	=42	=42	=42	=42	=42	=42	=42	=42	=42	=42	=42	=42	=42	=42	=42	=42	=42	=42	=42	=42	=42	=42	=42	=42	=42
*	*	*tremolo	*	*tremolo	*	*	*	*	*	*	*	*	*	*	*	*	*	*	*	*	*	*	*	*	*	*
4E\	.	8B/L	.	8d/L	.	1ryy	2B\	cem	.	2d\	-cem	.	2g#X\	-cem	.	2b\	-cem	.	1r	.	1r	.	8g#X\L	.	8b\L	.
.	.	8d/	.	8e/	.	.	.	.	.	.	.	.	.	.	.	.	.	.	.	.	.	.	8dd\J	.	8gg#X\J	.
*	*	*	*	*	*	*	*	*	*	*	*	*	*	*	*	*	*	*	*	*	*	*	*tremolo	*	*tremolo	*
4e\	.	8B/	.	8d/	.	.	.	.	.	.	.	.	.	.	.	.	.	.	.	.	.	.	8dd\L	.	8gg#\L	.
.	.	8d/J	.	8e/J	.	.	.	.	.	.	.	.	.	.	.	.	.	.	.	.	.	.	8dd\	.	8gg#\	.
4E\	.	8G#X/L	.	8d/L	.	.	2r	.	.	2r	.	.	2r	.	.	2r	.	.	.	.	.	.	8dd\	.	8gg#\	.
.	.	8d/	.	8e/	.	.	.	.	.	.	.	.	.	.	.	.	.	.	.	.	.	.	8dd\	.	8gg#\	.
4E\	.	8G#/	.	8d/	.	.	.	.	.	.	.	.	.	.	.	.	.	.	.	.	.	.	8dd\	.	8gg#\	.
.	.	8d/J	.	8e/J	.	.	.	.	.	.	.	.	.	.	.	.	.	.	.	.	.	.	8dd\J	.	8gg#\J	.
*	*	*Xtremolo	*	*Xtremolo	*	*	*	*	*	*	*	*	*	*	*	*	*	*	*	*	*	*	*	*	*	*
!	!	!LO:LB:g=original	!	!	!	!	!	!	!	!	!	!	!	!	!	!	!	!	!	!	!	!	!	!	!	!
=43	=43	=43	=43	=43	=43	=43	=43	=43	=43	=43	=43	=43	=43	=43	=43	=43	=43	=43	=43	=43	=43	=43	=43	=43	=43	=43
*	*	*	*	*	*	*	*	*	*	*	*	*	*	*	*	*	*	*	*tremolo	*	*tremolo	*	*	*	*	*
!	!	!	!	!	!LO:MO:mod=!LO&colon;DY&colon;ed=brack	!	!	!	!	!	!	!	!	!	!	!	!	!	!	!	!	!	!	!	!	!
!	!	!	!	!	!null	!	!	!	!	!	!	!	!	!	!	!	!	!	!	!	!	!	!	!	!	!
!	!LO:DY:t=for	!	!LO:DY:rj	!	!LO:MO:null:mod=f	!	!	!	!	!	!	!	!	!	!	!	!	!	!	!LO:MO:null:mod=ff	!	!LO:MO:null:mod=ff	!	!LO:DY:t=ff.	!	!LO:DY:t=ff.
4A\	f	4a\	f	4A/	.	1ryy	1r	.	.	1r	.	.	1r	.	.	1r	.	.	8A/L	.	8a/L	.	8cc#\L	ff	8aa\L	ff
.	.	.	.	.	.	.	.	.	.	.	.	.	.	.	.	.	.	.	8A/	.	8a/	.	8cc#\	.	8aa\	.
4E\	.	4e\	.	8B/L	.	.	.	.	.	.	.	.	.	.	.	.	.	.	8A/	.	8a/	.	8cc#\	.	8aa\	.
.	.	.	.	8B/J	.	.	.	.	.	.	.	.	.	.	.	.	.	.	8A/J	.	8a/J	.	8cc#\J	.	8aa\J	.
4C#/	.	4c#\	.	8c#/L	.	.	.	.	.	.	.	.	.	.	.	.	.	.	8A/L	.	8a/L	.	8cc#\L	.	8aa\L	.
.	.	.	.	8d/	.	.	.	.	.	.	.	.	.	.	.	.	.	.	8A/	.	8a/	.	8cc#\	.	8aa\	.
4AA/	.	4A\	.	8B/	.	.	.	.	.	.	.	.	.	.	.	.	.	.	8A/	.	8a/	.	8cc#\	.	8aa\	.
.	.	.	.	8c#/J	.	.	.	.	.	.	.	.	.	.	.	.	.	.	8A/J	.	8a/J	.	8cc#\J	.	8aa\J	.
*	*	*	*	*	*	*	*	*	*	*	*	*	*	*	*	*	*	*	*Xtremolo	*	*Xtremolo	*	*	*	*Xtremolo	*
!	!	!	!	!	!	!	!	!	!	!LO:LB:g=original	!	!	!	!	!	!	!	!	!	!	!	!	!LO:LB:g=original	!	!	!
=44	=44	=44	=44	=44	=44	=44	=44	=44	=44	=44	=44	=44	=44	=44	=44	=44	=44	=44	=44	=44	=44	=44	=44	=44	=44	=44
*tremolo	*	*tremolo	*	*	*	*	*	*	*	*	*	*	*	*	*	*	*	*	*	*	*	*	*	*	*	*
!	!	!	!	!	!	!	!	!LO:MO:mod=do-	!	!	!LO:MO:mod=do-	!	!	!LO:MO:mod=do-	!	!	!LO:MO:mod=do-	!	!	!LO:DY:mod= :t=ff.	!	!LO:DY:mod= :t=ff.	!	!	!	!
8G#X\L	.	8e\L	.	2e/ 2B/	.	1ryy	4E\	Do-	.	4B\	Do-	.	4g#X\	Do-	.	4dd\	Do-	.	2dd\	ff	2ee\	ff	2dd\	.	2bb\	.
8E\	.	8d\	.	.	.	.	.	.	.	.	.	.	.	.	.	.	.	.	.	.	.	.	.	.	.	.
8G#\	.	8e\	.	.	.	.	4B\	-na	.	4B\	-na	.	4g#\	-na	.	4dd\	-na	.	.	.	.	.	.	.	.	.
8E\J	.	8d\J	.	.	.	.	.	.	.	.	.	.	.	.	.	.	.	.	.	.	.	.	.	.	.	.
!	!	!	!	!	!	!	!	!	!	!	!	!	!	!	!	!LO:LB:g=original	!	!	!	!	!	!	!	!	!	!
8G#\L	.	8B/L	.	2d/ 2G#X/	.	.	4G#X\	no-	.	4B\	no-	.	4g#\	no-	.	4dd\	no-	.	2dd\	.	2ee\	.	2b\	.	2ee\	.
8E\	.	8d/	.	.	.	.	.	.	.	.	.	.	.	.	.	.	.	.	.	.	.	.	.	.	.	.
8G#\	.	8B/	.	.	.	.	4E\	-bis	.	4B\	-bis	.	4g#\	-bis	.	4dd\	-bis	.	.	.	.	.	.	.	.	.
8E\J	.	8d/J	.	.	.	.	.	.	.	.	.	.	.	.	.	.	.	.	.	.	.	.	.	.	.	.
*Xtremolo	*	*Xtremolo	*	*	*	*	*	*	*	*	*	*	*	*	*	*	*	*	*tremolo	*	*tremolo	*	*	*	*tremolo	*
=45	=45	=45	=45	=45	=45	=45	=45	=45	=45	=45	=45	=45	=45	=45	=45	=45	=45	=45	=45	=45	=45	=45	=45	=45	=45	=45
4A\	.	4A/	.	8e/L 8c#/	.	1ryy	4A\	pa-	.	4e\	pa-	.	4a\	pa-	.	4cc#\	pa-	.	8A/L	.	8a/L	.	8cc#\L	.	8aa\L	.
.	.	.	.	8e/J 8c#/	.	.	.	.	.	.	.	.	.	.	.	.	.	.	8A/	.	8a/	.	8cc#\	.	8aa\	.
4E\	.	4c#/	.	8A/L	.	.	4AA/	-cem	.	4e\	-cem	.	4a\	-cem	.	4cc#\	-cem	.	8A/	.	8a/	.	8cc#\	.	8aa\	.
.	.	.	.	8B/J	.	.	.	.	.	.	.	.	.	.	.	.	.	.	8A/J	.	8a/J	.	8cc#\J	.	8aa\J	.
4C#/	.	4e\	.	8c#/L	.	.	2r	.	.	2r	.	.	2r	.	.	2r	.	.	8A/L	.	8a/L	.	8cc#\L	.	8aa\L	.
.	.	.	.	8d/	.	.	.	.	.	.	.	.	.	.	.	.	.	.	8A/	.	8a/	.	8cc#\	.	8aa\	.
4AA/	.	4g\	.	8B/	.	.	.	.	.	.	.	.	.	.	.	.	.	.	8A/	.	8a/	.	8cc#\	.	8aa\	.
.	.	.	.	8c#/J	.	.	.	.	.	.	.	.	.	.	.	.	.	.	8A/J	.	8a/J	.	8cc#\J	.	8aa\J	.
!	!	!	!	!	!	!	!LO:LB:g=original	!	!	!	!	!	!	!	!	!	!	!	!	!	!	!	!	!	!	!
=46	=46	=46	=46	=46	=46	=46	=46	=46	=46	=46	=46	=46	=46	=46	=46	=46	=46	=46	=46	=46	=46	=46	=46	=46	=46	=46
*	*	*tremolo	*	*tremolo	*	*	*	*	*	*	*ij	*	*	*ij	*	*	*	*	*Xtremolo	*	*Xtremolo	*	*	*	*Xtremolo	*
!	!	!	!	!	!	!	!	!LO:MO:mod=do-	!	!	!LO:MO:mod=do-	!	!	!LO:MO:mod=do-	!	!	!LO:MO:mod=do-	!	!	!	!	!	!	!	!	!
2AA/	.	8A/L	.	8e/L 8c#/	.	1ryy	4AA/	Do-	.	4c#\	Do-	.	4a\	Do-	.	4ee\	Do-	.	4A/	.	4a/	.	4cc#\	.	4aa\	.
!	!LO:DY:mod= :t=p.	!	!	!	!	!	!	!	!	!	!	!	!	!	!	!	!	!	!	!	!	!	!	!	!	!
.	p	8c#/	.	8e/	.	.	.	.	.	.	.	.	.	.	.	.	.	.	.	.	.	.	.	.	.	.
.	.	8A/	.	8e/ 8c#/	.	.	4C#/	-na	.	4c#\	-na	.	4a\	-na	.	4ee\	-na	.	2A/	.	2a/	.	2cc#\	.	2aa\	.
.	.	8c#/J	.	8e/J	.	.	.	.	.	.	.	.	.	.	.	.	.	.	.	.	.	.	.	.	.	.
*	*	*rep	*	*	*	*	*	*	*	*	*	*	*	*	*	*	*	*	*	*	*	*	*	*	*	*
!	!	!	!	!LO:LB:g=original	!	!	!	!	!	!	!	!	!	!	!	!	!	!	!	!	!	!	!	!	!	!
2A\	.	8A/L	.	8e/L 8c#/	.	.	4E/	no-	.	4c#\	no-	.	4a\	no-	.	4ee\	no-	.	.	.	.	.	.	.	.	.
.	.	8c#/	.	8e/	.	.	.	.	.	.	.	.	.	.	.	.	.	.	.	.	.	.	.	.	.	.
.	.	8A/	.	8e/ 8c#/	.	.	4A/	-bis	.	4c#\	-bis	.	4a\	-bis	.	4ee\	-bis	.	4A/	.	4a/	.	4cc#\	.	4aa\	.
.	.	8c#/J	.	8e/J	.	.	.	.	.	.	.	.	.	.	.	.	.	.	.	.	.	.	.	.	.	.
*	*	*Xrep	*	*	*	*	*	*	*	*	*	*	*	*	*	*	*	*	*	*	*	*	*	*	*	*
!	!	!	!	!	!	!	!	!	!	!	!	!	!LO:LB:g=original	!	!	!	!	!	!	!	!	!	!	!	!	!
=47	=47	=47	=47	=47	=47	=47	=47	=47	=47	=47	=47	=47	=47	=47	=47	=47	=47	=47	=47	=47	=47	=47	=47	=47	=47	=47
2AA/	.	8A/L	.	8d/L	.	1ryy	4AA/	pa-	.	2d\	pa-	.	2a\	pa-	.	2ff#\	pa-	.	4f#/	.	4dd\	.	4dd\	.	4aa\	.
.	.	8d/	.	8f#/	.	.	.	.	.	.	.	.	.	.	.	.	.	.	.	.	.	.	.	.	.	.
.	.	8A/	.	8d/	.	.	4D/	-cem	.	.	.	.	.	.	.	.	.	.	2f#/	.	2dd\	.	2dd\	.	2aa\	.
.	.	8d/J	.	8f#/J	.	.	.	.	.	.	.	.	.	.	.	.	.	.	.	.	.	.	.	.	.	.
*	*	*rep	*	*	*	*	*	*ij	*	*	*	*	*	*	*	*	*	*	*	*	*	*	*	*	*	*
2A\	.	8A/L	.	8d/L	.	.	4F#\	pa-	.	2d\	-cem	.	2a\	-cem	.	2ff#\	-cem	.	.	.	.	.	.	.	.	.
*	*	*	*	*	*	*	*	*	*	*	*	*	*	*Xij	*	*	*	*	*	*	*	*	*	*	*	*
.	.	8d/	.	8f#/	.	.	.	.	.	.	.	.	.	.	.	.	.	.	.	.	.	.	.	.	.	.
.	.	8A/	.	8d/	.	.	4A\	-cem	.	.	.	.	.	.	.	.	.	.	4f#/	.	4dd\	.	4dd\	.	4aa\	.
.	.	8d/J	.	8f#/J	.	.	.	.	.	.	.	.	.	.	.	.	.	.	.	.	.	.	.	.	.	.
*	*	*Xrep	*	*	*	*	*	*Xij	*	*	*	*	*	*	*	*	*	*	*	*	*	*	*	*	*	*
!	!	!	!	!	!	!	!	!	!	!	!	!	!	!	!	!	!	!	!	!	!	!	!	!	!LO:LB:g=original	!
=48	=48	=48	=48	=48	=48	=48	=48	=48	=48	=48	=48	=48	=48	=48	=48	=48	=48	=48	=48	=48	=48	=48	=48	=48	=48	=48
*	*	*	*	*	*	*	*	*ij	*	*	*	*	*	*	*	*	*ij	*	*	*	*	*	*	*	*	*
!	!	!	!	!	!	!	!	!LO:MO:mod=do-	!	!	!	!	!	!LO:MO:mod=do-	!	!	!LO:MO:mod=do-	!	!	!	!	!	!	!	!	!
2G#X\	.	16d/LL 16G#X/	.	16ffn\LL 16a\	.	1ryy	4G#X\	Do-	.	4d\	do-	.	4b\	Do-	.	4ffn\	Do-	.	2d/	.	2dd\	.	2ffn\	.	2bb\	.
.	.	16d/ 16G#/	.	16ff\ 16a\	.	.	.	.	.	.	.	.	.	.	.	.	.	.	.	.	.	.	.	.	.	.
.	.	16d/ 16G#/	.	16ff\ 16a\	.	.	.	.	.	.	.	.	.	.	.	.	.	.	.	.	.	.	.	.	.	.
.	.	16d/ 16G#/	.	16ff\ 16a\	.	.	.	.	.	.	.	.	.	.	.	.	.	.	.	.	.	.	.	.	.	.
.	.	16d/ 16G#/	.	16ff\ 16a\	.	.	4G#\	-na	.	4d\	-na	.	4b\	-na	.	4ff\	-na	.	.	.	.	.	.	.	.	.
.	.	16d/ 16G#/	.	16ff\ 16a\	.	.	.	.	.	.	.	.	.	.	.	.	.	.	.	.	.	.	.	.	.	.
.	.	16d/ 16G#/	.	16ff\ 16a\	.	.	.	.	.	.	.	.	.	.	.	.	.	.	.	.	.	.	.	.	.	.
.	.	16d/JJ 16G#/	.	16ff\JJ 16a\	.	.	.	.	.	.	.	.	.	.	.	.	.	.	.	.	.	.	.	.	.	.
!LO:SIC:v:s:t=2GG#	!	!	!	!	!	!	!	!	!	!	!	!	!	!	!	!	!	!	!	!	!	!	!	!	!	!
2GG#y/	.	16d/LL 16G#/	.	16ff\LL 16a\	.	.	4G#\	no-	.	4d\	no-	.	4b\	no-	.	4ff\	no-	.	2d/	.	2dd\	.	2ff\	.	2bb\	.
.	.	16d/ 16G#/	.	16ff\ 16a\	.	.	.	.	.	.	.	.	.	.	.	.	.	.	.	.	.	.	.	.	.	.
.	.	16d/ 16G#/	.	16ff\ 16a\	.	.	.	.	.	.	.	.	.	.	.	.	.	.	.	.	.	.	.	.	.	.
.	.	16d/ 16G#/	.	16ff\ 16a\	.	.	.	.	.	.	.	.	.	.	.	.	.	.	.	.	.	.	.	.	.	.
.	.	16d/ 16G#/	.	16ff\ 16a\	.	.	4G#\	-bis	.	4d\	-bis	.	4b\	-bis	.	4ff\	-bis	.	.	.	.	.	.	.	.	.
.	.	16d/ 16G#/	.	16ff\ 16a\	.	.	.	.	.	.	.	.	.	.	.	.	.	.	.	.	.	.	.	.	.	.
.	.	16d/ 16G#/	.	16ff\ 16a\	.	.	.	.	.	.	.	.	.	.	.	.	.	.	.	.	.	.	.	.	.	.
.	.	16d/JJ 16G#/	.	16ff\JJ 16a\	.	.	.	.	.	.	.	.	.	.	.	.	.	.	.	.	.	.	.	.	.	.
!	!	!	!	!	!	!	!	!	!	!	!	!	!	!	!	!	!	!	!	!	!LO:LB:g=original	!	!	!	!	!
=49	=49	=49	=49	=49	=49	=49	=49	=49	=49	=49	=49	=49	=49	=49	=49	=49	=49	=49	=49	=49	=49	=49	=49	=49	=49	=49
!	!	!	!LO:MO:mod=.	!	!	!	!	!	!	!	!	!	!	!	!	!	!	!	!	!	!	!	!LO:SIC:s=2cc#	!	!	!
4AA/	.	8A/L	p	16ee\LL 16cc#\	.	1ryy	2A\	pa-	.	2c#\	pa-	.	2a\	pa-	.	2ee\	pa-	.	2a/	.	2ee\	.	2cc#X\	.	2aa\	.
.	.	.	.	16ee\ 16cc#\	.	.	.	.	.	.	.	.	.	.	.	.	.	.	.	.	.	.	.	.	.	.
.	.	8c#/	.	16ee\ 16cc#\	.	.	.	.	.	.	.	.	.	.	.	.	.	.	.	.	.	.	.	.	.	.
.	.	.	.	16ee\ 16cc#\	.	.	.	.	.	.	.	.	.	.	.	.	.	.	.	.	.	.	.	.	.	.
4C#/	.	8A/	.	16ee\ 16cc#\	.	.	.	.	.	.	.	.	.	.	.	.	.	.	.	.	.	.	.	.	.	.
.	.	.	.	16ee\ 16cc#\	.	.	.	.	.	.	.	.	.	.	.	.	.	.	.	.	.	.	.	.	.	.
.	.	8c#/J	.	16ee\ 16cc#\	.	.	.	.	.	.	.	.	.	.	.	.	.	.	.	.	.	.	.	.	.	.
.	.	.	.	16ee\JJ 16cc#\	.	.	.	.	.	.	.	.	.	.	.	.	.	.	.	.	.	.	.	.	.	.
*	*	*rep	*	*	*	*	*	*	*	*	*	*	*	*	*	*	*	*	*	*	*	*	*	*	*	*
4E/	.	8A/L	.	16ee\LL 16cc#\	.	.	2A\	-cem	.	2c#\	-cem	.	2a\	-cem	.	2ee\	-cem	.	2a/	.	2ee\	.	2cc#\	.	2aa\	.
.	.	.	.	16ee\ 16cc#\	.	.	.	.	.	.	.	.	.	.	.	.	.	.	.	.	.	.	.	.	.	.
.	.	8c#/	.	16ee\ 16cc#\	.	.	.	.	.	.	.	.	.	.	.	.	.	.	.	.	.	.	.	.	.	.
.	.	.	.	16ee\ 16cc#\	.	.	.	.	.	.	.	.	.	.	.	.	.	.	.	.	.	.	.	.	.	.
4A\	.	8A/	.	16ee\ 16cc#\	.	.	.	.	.	.	.	.	.	.	.	.	.	.	.	.	.	.	.	.	.	.
.	.	.	.	16ee\ 16cc#\	.	.	.	.	.	.	.	.	.	.	.	.	.	.	.	.	.	.	.	.	.	.
.	.	8c#/J	.	16ee\ 16cc#\	.	.	.	.	.	.	.	.	.	.	.	.	.	.	.	.	.	.	.	.	.	.
.	.	.	.	16ee\JJ 16cc#\	.	.	.	.	.	.	.	.	.	.	.	.	.	.	.	.	.	.	.	.	.	.
*	*	*Xrep	*	*	*	*	*	*	*	*	*	*	*	*	*	*	*	*	*	*	*	*	*	*	*	*
!LO:LB:g=original	!	!	!	!	!	!	!	!	!	!	!	!	!	!	!	!	!	!	!LO:LB:g=original	!	!	!	!	!	!	!
=50	=50	=50	=50	=50	=50	=50	=50	=50	=50	=50	=50	=50	=50	=50	=50	=50	=50	=50	=50	=50	=50	=50	=50	=50	=50	=50
*	*	*	*	*	*	*	*	*	*	*	*	*	*	*ij	*	*	*	*	*	*	*	*	*	*	*	*
!	!	!	!LO:MO:mod=.	!	!	!	!	!LO:MO:mod=do-	!	!	!	!	!	!LO:MO:mod=do-	!	!	!LO:MO:mod=do-	!	!	!	!	!	!	!	!	!
2G#X\	.	16d/LL 16G#X/	f	16ffn\LL 16b\	.	1ryy	4G#X\	Do-	.	4d\	do-	.	4b\	Do-	.	4ffn\	Do-	.	2d/	.	2dd\	.	2ffn\	.	2bb\	.
.	.	16d/ 16G#/	.	16ff\ 16b\	.	.	.	.	.	.	.	.	.	.	.	.	.	.	.	.	.	.	.	.	.	.
.	.	16d/ 16G#/	.	16ff\ 16b\	.	.	.	.	.	.	.	.	.	.	.	.	.	.	.	.	.	.	.	.	.	.
.	.	16d/ 16G#/	.	16ff\ 16b\	.	.	.	.	.	.	.	.	.	.	.	.	.	.	.	.	.	.	.	.	.	.
.	.	16d/ 16G#/	.	16ff\ 16b\	.	.	4G#\	-na	.	4d\	-na	.	4b\	-na	.	4ff\	-na	.	.	.	.	.	.	.	.	.
.	.	16d/ 16G#/	.	16ff\ 16b\	.	.	.	.	.	.	.	.	.	.	.	.	.	.	.	.	.	.	.	.	.	.
.	.	16d/ 16G#/	.	16ff\ 16b\	.	.	.	.	.	.	.	.	.	.	.	.	.	.	.	.	.	.	.	.	.	.
.	.	16d/JJ 16G#/	.	16ff\JJ 16b\	.	.	.	.	.	.	.	.	.	.	.	.	.	.	.	.	.	.	.	.	.	.
!LO:SIC:v:s:t=2GG#	!	!	!	!	!	!	!	!	!	!	!	!	!	!	!	!	!	!	!	!	!	!	!	!	!	!
2GG#y/	.	16d/LL 16G#/	.	16ff\LL 16b\	.	.	4G#\	no-	.	4d\	no-	.	4b\	no-	.	4ff\	no-	.	2d/	.	2dd\	.	2ff\	.	2bb\	.
.	.	16d/ 16G#/	.	16ff\ 16b\	.	.	.	.	.	.	.	.	.	.	.	.	.	.	.	.	.	.	.	.	.	.
.	.	16d/ 16G#/	.	16ff\ 16b\	.	.	.	.	.	.	.	.	.	.	.	.	.	.	.	.	.	.	.	.	.	.
.	.	16d/ 16G#/	.	16ff\ 16b\	.	.	.	.	.	.	.	.	.	.	.	.	.	.	.	.	.	.	.	.	.	.
.	.	16d/ 16G#/	.	16ff\ 16b\	.	.	4G#\	-bis	.	4d\	-bis	.	4b\	-bis	.	4ff\	-bis	.	.	.	.	.	.	.	.	.
.	.	16d/ 16G#/	.	16ff\ 16b\	.	.	.	.	.	.	.	.	.	.	.	.	.	.	.	.	.	.	.	.	.	.
.	.	16d/ 16G#/	.	16ff\ 16b\	.	.	.	.	.	.	.	.	.	.	.	.	.	.	.	.	.	.	.	.	.	.
.	.	16d/JJ 16G#/	.	16ff\JJ 16b\	.	.	.	.	.	.	.	.	.	.	.	.	.	.	.	.	.	.	.	.	.	.
=51	=51	=51	=51	=51	=51	=51	=51	=51	=51	=51	=51	=51	=51	=51	=51	=51	=51	=51	=51	=51	=51	=51	=51	=51	=51	=51
!	!	!	!LO:MO:mod=.	!	!	!	!	!	!	!	!	!	!	!	!	!	!	!	!	!	!	!	!LO:SIC:s=2cc#	!	!	!
4AA/	.	8A/L	p	16ee\LL 16b\	.	1ryy	4A\	pa-	.	4c#\	pa-	.	4a\	pa-	.	4ee\	pa-	.	2a/	.	2ee\	.	2cc#X\	.	2aa\	.
.	.	.	.	16ee\ 16b\	.	.	.	.	.	.	.	.	.	.	.	.	.	.	.	.	.	.	.	.	.	.
.	.	8c#/	.	16ee\ 16b\	.	.	.	.	.	.	.	.	.	.	.	.	.	.	.	.	.	.	.	.	.	.
.	.	.	.	16ee\ 16b\	.	.	.	.	.	.	.	.	.	.	.	.	.	.	.	.	.	.	.	.	.	.
!	!	!	!	!	!	!	!	!	!	!	!	!	!	!	!LO:DY:rj:mod=: t=p.	!	!	!	!	!	!	!	!	!	!	!
4C#/	.	8A/	.	16ee\ 16b\	.	.	4A\	-cem	.	4c#\	-cem	.	4a\	-cem	p	4ee\	-cem	.	.	.	.	.	.	.	.	.
*	*	*	*	*	*	*	*	*Xij	*	*	*Xij	*	*	*Xij	*	*	*Xij	*	*	*	*	*	*	*	*	*
.	.	.	.	16ee\ 16b\	.	.	.	.	.	.	.	.	.	.	.	.	.	.	.	.	.	.	.	.	.	.
.	.	8c#/J	.	16ee\ 16b\	.	.	.	.	.	.	.	.	.	.	.	.	.	.	.	.	.	.	.	.	.	.
.	.	.	.	16ee\JJ 16b\	.	.	.	.	.	.	.	.	.	.	.	.	.	.	.	.	.	.	.	.	.	.
!	!	!	!	!	!	!	!LO:SIC:s=2E	!	!	!	!	!	!	!	!	!	!	!	!	!	!	!	!	!	!	!
4D/	.	8B/L	.	16ee\LL 16b\	.	.	(>2E\	pa-	.	2d\	pa-	.	2b\	pa-	.	2gg#X\	pa-	.	2a/	.	2ee\	.	2cc#\	.	2aa\	.
.	.	.	.	16ee\ 16b\	.	.	.	.	.	.	.	.	.	.	.	.	.	.	.	.	.	.	.	.	.	.
.	.	8d/	.	16ee\ 16b\	.	.	.	.	.	.	.	.	.	.	.	.	.	.	.	.	.	.	.	.	.	.
.	.	.	.	16ee\ 16b\	.	.	.	.	.	.	.	.	.	.	.	.	.	.	.	.	.	.	.	.	.	.
4E/	.	8B/	.	16ee\ 16b\	.	.	.	.	.	.	.	.	.	.	.	.	.	.	.	.	.	.	.	.	.	.
.	.	.	.	16ee\ 16b\	.	.	.	.	.	.	.	.	.	.	.	.	.	.	.	.	.	.	.	.	.	.
.	.	8d/J	.	16ee\ 16b\	.	.	.	.	.	.	.	.	.	.	.	.	.	.	.	.	.	.	.	.	.	.
.	.	.	.	16ee\JJ 16b\	.	.	.	.	.	.	.	.	.	.	.	.	.	.	.	.	.	.	.	.	.	.
!	!	!LO:LB:g=original	!	!	!	!	!	!	!	!	!	!	!	!	!	!	!	!	!	!	!	!	!	!	!	!
=52	=52	=52	=52	=52	=52	=52	=52	=52	=52	=52	=52	=52	=52	=52	=52	=52	=52	=52	=52	=52	=52	=52	=52	=52	=52	=52
!LO:TX:t=P:problem=łuk zaczyna się od góry, kończy od dołu	!LO:DY:mod= :t=for	!	!	!	!LO:SIC:s=4A	!	!	!	!	!	!	!	!	!	!	!	!	!	!	!	!	!	!	!	!	!
(>8A\L	f	8A/L	.	16e\LL 16c#/	.	1ryy	4A\)	-cem	.	4e\	-cem	.	4cc#\	-cem	.	4aa\	-cem	.	2a/	.	2ee\	.	2cc#\	.	2aa\	.
.	.	.	.	16e\ 16c#/	.	.	.	.	.	.	.	.	.	.	.	.	.	.	.	.	.	.	.	.	.	.
16G#X\L	.	8c#/	.	16e\ 16c#/	.	.	.	.	.	.	.	.	.	.	.	.	.	.	.	.	.	.	.	.	.	.
16F#\JJ	.	.	.	16e\ 16c#/	.	.	.	.	.	.	.	.	.	.	.	.	.	.	.	.	.	.	.	.	.	.
16E/LL	.	8A/	.	16e\ 16c#/	.	.	4r	.	.	4r	.	.	4r	.	.	4r	.	.	.	.	.	.	.	.	.	.
16D/	.	.	.	16e\ 16c#/	.	.	.	.	.	.	.	.	.	.	.	.	.	.	.	.	.	.	.	.	.	.
16C#/)	.	8c#/J	.	16e\ 16c#/	.	.	.	.	.	.	.	.	.	.	.	.	.	.	.	.	.	.	.	.	.	.
16BB/JJ	.	.	.	16e\JJ 16c#/	.	.	.	.	.	.	.	.	.	.	.	.	.	.	.	.	.	.	.	.	.	.
*	*	*rep	*	*	*	*	*	*	*	*	*	*	*	*	*	*	*	*	*	*	*	*	*	*	*	*
!	!	!	!LO:MO:mod=.	!	!	!	!	!	!	!	!	!	!	!	!	!	!	!	!	!	!	!	!	!	!	!
8AA/L	.	8A/L	f	16gn\LL 16A/	.	.	2r	.	.	2r	.	.	2r	.	.	2r	.	.	2a/	.	2ee\	.	2ee\	.	2aa\	.
.	.	.	.	16g\ 16A/	.	.	.	.	.	.	.	.	.	.	.	.	.	.	.	.	.	.	.	.	.	.
8C#/	.	8c#/	.	16g\ 16A/	.	.	.	.	.	.	.	.	.	.	.	.	.	.	.	.	.	.	.	.	.	.
.	.	.	.	16g\ 16A/	.	.	.	.	.	.	.	.	.	.	.	.	.	.	.	.	.	.	.	.	.	.
8E/	.	8A/	.	16g\ 16A/	.	.	.	.	.	.	.	.	.	.	.	.	.	.	.	.	.	.	.	.	.	.
.	.	.	.	16g\ 16A/	.	.	.	.	.	.	.	.	.	.	.	.	.	.	.	.	.	.	.	.	.	.
8A/J	.	8c#/J	.	16g\ 16A/	.	.	.	.	.	.	.	.	.	.	.	.	.	.	.	.	.	.	.	.	.	.
.	.	.	.	16g\JJ 16A/	.	.	.	.	.	.	.	.	.	.	.	.	.	.	.	.	.	.	.	.	.	.
*	*	*Xrep	*	*Xtremolo	*	*	*	*	*	*	*	*	*	*	*	*	*	*	*	*	*	*	*	*	*	*
!	!	!	!	!LO:LB:g=original	!	!	!LO:LB:g=original	!	!	!LO:LB:g=original	!	!	!	!	!	!LO:LB:g=original	!	!	!	!	!	!	!	!	!	!
=53	=53	=53	=53	=53	=53	=53	=53	=53	=53	=53	=53	=53	=53	=53	=53	=53	=53	=53	=53	=53	=53	=53	=53	=53	=53	=53
!	!	!	!	!	!LO:MO:mod=!LO&colon;DY&colon;ed=brack	!	!	!	!LO:MO:mod=!LO&colon;DY&colon;ed=brack	!	!	!LO:MO:mod=!LO&colon;DY&colon;ed=brack	!	!	!LO:MO:mod=!LO&colon;DY&colon;ed=brack	!	!	!	!	!	!	!	!	!	!	!
!	!	!	!	!	!null	!	!	!	!null	!	!	!null	!	!	!null	!	!	!	!	!	!	!	!LO:MO:mod=!LO&colon;TX&colon;b&colon;i&colon;t=dolce	!	!	!
!	!LO:MO:null:mod=p	!	!LO:DY:rj	!	!LO:MO:null:mod=p	!	!	!LO:MO:mod=do-	!LO:MO:null:mod=p	!	!LO:MO:mod=do-	!LO:MO:null:mod=p	!	!LO:MO:mod=do-	!LO:MO:null:mod=p	!	!LO:MO:mod=do-	!LO:DY:t=po	!	!	!	!	!LO:TX:b:t=dol.	!	!LO:TX:b:i:t= :mod=dolce	!
4D\	.	8F#/L	p	4f#/ 4A/	.	1ryy	4D\	Do-	.	4d\	Do-	.	2f#\	Do-	.	2a\	Do-	p	4f#/	.	4dd\	.	4dd\	.	4ff#\	.
.	.	8A/	.	.	.	.	.	.	.	.	.	.	.	.	.	.	.	.	.	.	.	.	.	.	.	.
!	!LO:DY:mod= :t=pp.	!	!	!	!	!	!	!	!	!	!	!	!	!	!	!	!	!	!	!	!	!	!	!	!LO:TX:b:t=dol.:mod=	!
4d\	pp	8F#/	.	4f#/	.	.	4r	.	.	4r	.	.	.	.	.	.	.	.	4r	.	4r	.	4ff#\	.	4aa\	.
.	.	8A/J	.	.	.	.	.	.	.	.	.	.	.	.	.	.	.	.	.	.	.	.	.	.	.	.
*	*	*rep	*	*	*	*	*	*	*	*	*	*	*	*	*	*	*	*	*	*	*	*	*	*	*	*
4d\	.	8F#/L	.	4d/	.	.	4D\	-na	.	4d\	-na	.	4d\	-na	.	4f#/	-na	.	2r	.	2r	.	(>4dd\	.	(>4ff#\	.
.	.	8A/	.	.	.	.	.	.	.	.	.	.	.	.	.	.	.	.	.	.	.	.	.	.	.	.
4d\	.	8F#/	.	4e/	.	.	4r	.	.	4r	.	.	4e\	.	.	4g/	.	.	.	.	.	.	4ee\)	.	4gg\)	.
.	.	8A/J	.	.	.	.	.	.	.	.	.	.	.	.	.	.	.	.	.	.	.	.	.	.	.	.
*	*	*Xrep	*	*	*	*	*	*	*	*	*	*	*	*	*	*	*	*	*	*	*	*	*	*	*	*
!	!	!	!	!	!	!	!	!	!	!	!	!	!	!	!	!	!	!	!	!	!	!	!LO:LB:g=original	!	!	!
=54	=54	=54	=54	=54	=54	=54	=54	=54	=54	=54	=54	=54	=54	=54	=54	=54	=54	=54	=54	=54	=54	=54	=54	=54	=54	=54
*	*	*rep	*	*	*	*	*	*	*	*	*	*	*	*	*	*	*	*	*	*	*	*	*	*	*	*
!	!	!	!	!	!	!	!	!	!	!	!	!	!	!	!	!	!	!	!	!	!LO:TX:a:t=2:mod=	!	!	!	!	!
4D\	.	8F#/L	.	2f#/	.	1ryy	4D\	no-	.	4d\	no-	.	2f#\	no-	.	2a\	no-	.	0r	.	0r	.	2ff#\	.	2aa\	.
.	.	8A/	.	.	.	.	.	.	.	.	.	.	.	.	.	.	.	.	.	.	.	.	.	.	.	.
4d\	.	8F#/	.	.	.	.	4r	.	.	4r	.	.	.	.	.	.	.	.	.	.	.	.	.	.	.	.
.	.	8A/J	.	.	.	.	.	.	.	.	.	.	.	.	.	.	.	.	.	.	.	.	.	.	.	.
*	*	*Xrep	*	*	*	*	*	*	*	*	*	*	*	*	*	*	*	*	*	*	*	*	*	*	*	*
*	*	*rep	*	*	*	*	*	*	*	*	*	*	*	*	*	*	*	*	*	*	*	*	*	*	*	*
!	!	!	!	!	!	!	!	!	!	!	!	!	!	!LO:MO:null:mod=-bis	!	!	!	!	!	!	!	!	!	!	!	!
4d\	.	8F#/L	.	4g/	.	.	4D\	-bis	.	4d\	-bis	.	4g\	.	.	4b\	-bis	.	.	.	.	.	4gg\	.	4bb\	.
.	.	8A/	.	.	.	.	.	.	.	.	.	.	.	.	.	.	.	.	.	.	.	.	.	.	.	.
!	!	!	!	!	!	!	!	!	!	!	!	!	!	!LO:MO:mod=.	!	!	!	!	!	!	!	!	!	!	!	!
4d\	.	8F#/	.	4a/	.	.	4r	.	.	4r	.	.	4a\	-bis	.	4cc#\	.	.	.	.	.	.	4aa\	.	4ccc#\	.
.	.	8A/J	.	.	.	.	.	.	.	.	.	.	.	.	.	.	.	.	.	.	.	.	.	.	.	.
*	*	*Xrep	*	*	*	*	*	*	*	*	*	*	*	*	*	*	*	*	*	*	*	*	*	*	*	*
=55	=55	=55	=55	=55	=55	=55	=55	=55	=55	=55	=55	=55	=55	=55	=55	=55	=55	=55	=55	=55	=55	=55	=55	=55	=55	=55
*	*	*rep	*	*	*	*	*	*	*	*	*	*	*	*	*	*	*	*	*	*	*	*	*	*	*	*
4D\	.	8F#/L	.	4.b\	.	1ryy	1D	pa-	.	1d	pa-	.	4.b\	pa-	.	4.dd\	pa-	.	.	.	.	.	4bb\	.	4ddd\	.
.	.	8A/	.	.	.	.	.	.	.	.	.	.	.	.	.	.	.	.	.	.	.	.	.	.	.	.
4d\	.	8F#/	.	.	.	.	.	.	.	.	.	.	.	.	.	.	.	.	.	.	.	.	4r	.	4r	.
.	.	8A/J	.	16cc#\LL	.	.	.	.	.	.	.	.	16cc#\LL	.	.	16ee\LL	.	.	.	.	.	.	.	.	.	.
.	.	.	.	16b\JJ	.	.	.	.	.	.	.	.	16b\JJ	.	.	16dd\JJ	.	.	.	.	.	.	.	.	.	.
*	*	*Xrep	*	*	*	*	*	*	*	*	*	*	*	*	*	*	*	*	*	*	*	*	*	*	*	*
*	*	*rep	*	*	*	*	*	*	*	*	*	*	*	*	*	*	*	*	*	*	*	*	*	*	*	*
4d\	.	8F#/L	.	4a/	.	.	.	.	.	.	.	.	4a\	.	.	4cc#\	.	.	.	.	.	.	4aa\	.	4ccc#\	.
.	.	8A/	.	.	.	.	.	.	.	.	.	.	.	.	.	.	.	.	.	.	.	.	.	.	.	.
4d\	.	8F#/	.	4g/	.	.	.	.	.	.	.	.	4g\	.	.	4b\	.	.	.	.	.	.	4gg\	.	4bb\	.
.	.	8A/J	.	.	.	.	.	.	.	.	.	.	.	.	.	.	.	.	.	.	.	.	.	.	.	.
*	*	*Xrep	*	*	*	*	*	*	*	*	*	*	*	*	*	*	*	*	*	*	*	*	*	*	*	*
!	!	!	!	!	!	!	!	!	!	!	!	!	!LO:LB:g=original	!	!	!	!	!	!	!	!	!	!	!	!	!
=56	=56	=56	=56	=56	=56	=56	=56	=56	=56	=56	=56	=56	=56	=56	=56	=56	=56	=56	=56	=56	=56	=56	=56	=56	=56	=56
*	*	*rep	*	*	*	*	*	*	*	*	*	*	*	*	*	*	*	*	*	*	*	*	*	*	*	*
!	!	!	!	!	!	!	!	!	!	!	!	!	!	!	!	!	!	!	!	!LO:DY:t=po.	!	!LO:DY:t=po	!	!	!	!
4D\	.	8F#/L	.	2f#/	.	1ryy	2D\	-cem	.	2d\	-cem	.	2f#\	-cem	.	2a\	-cem	.	4f#/	p	4dd\	p	2ff#\	.	2aa\	.
.	.	8A/	.	.	.	.	.	.	.	.	.	.	.	.	.	.	.	.	.	.	.	.	.	.	.	.
4r	.	8F#/	.	.	.	.	.	.	.	.	.	.	.	.	.	.	.	.	4f#/	.	4dd\	.	.	.	.	.
.	.	8A/J	.	.	.	.	.	.	.	.	.	.	.	.	.	.	.	.	.	.	.	.	.	.	.	.
*	*	*Xrep	*	*	*	*	*	*	*	*	*	*	*	*	*	*	*	*	*	*	*	*	*	*	*	*
*	*	*rep	*	*	*	*	*	*	*	*	*	*	*	*	*	*	*	*	*	*	*	*	*	*	*	*
2r	.	8F#/L	.	2r	.	.	2r	.	.	2r	.	.	2r	.	.	2r	.	.	4f#/	.	4dd\	.	2r	.	2r	.
.	.	8A/	.	.	.	.	.	.	.	.	.	.	.	.	.	.	.	.	.	.	.	.	.	.	.	.
.	.	8F#/	.	.	.	.	.	.	.	.	.	.	.	.	.	.	.	.	4dd\	.	4ff#\	.	.	.	.	.
.	.	8A/J	.	.	.	.	.	.	.	.	.	.	.	.	.	.	.	.	.	.	.	.	.	.	.	.
*	*	*Xrep	*	*	*	*	*	*	*	*	*	*	*	*	*	*	*	*	*	*	*	*	*	*	*	*
=57	=57	=57	=57	=57	=57	=57	=57	=57	=57	=57	=57	=57	=57	=57	=57	=57	=57	=57	=57	=57	=57	=57	=57	=57	=57	=57
*	*	*rep	*	*	*	*	*	*	*	*	*	*	*	*	*	*	*	*	*	*	*	*	*	*	*	*
!	!	!	!	!	!	!	!LO:MO:mod=!LO&colon;TX&colon;a&colon;i&colon;t=dolce	!	!	!LO:MO:mod=!LO&colon;TX&colon;a&colon;i&colon;t=dolce	!	!	!LO:MO:mod=!LO&colon;TX&colon;a&colon;i&colon;t=dolce	!	!	!LO:MO:mod=!LO&colon;TX&colon;a&colon;i&colon;t=dolce	!	!	!LO:MO:mod=!LO&colon;TX&colon;b&colon;i&colon;t=dolce	!	!LO:MO:mod=!LO&colon;TX&colon;b&colon;i&colon;t=dolce	!	!LO:MO:mod=!LO&colon;TX&colon;b&colon;i&colon;t=dolce	!	!LO:MO:mod=!LO&colon;TX&colon;b&colon;i&colon;t=dolce	!
!	!	!	!	!	!	!	!null	!LO:MO:mod=do-	!	!null	!LO:MO:mod=do-	!	!LO:TX:a:t=dol&colon;	!LO:MO:mod=do-	!	!LO:TX:a:t=dol	!LO:MO:mod=do-	!	!LO:TX:b:t=dol.	!	!LO:TX:b:t=dol.	!	!LO:TX:b:t=dol.	!	!LO:TX:b:t=dol	!
4D\	.	8F#/L	.	2f#/	.	1ryy	4D\	Do-	.	2f#\	Do-	.	2d\	Do-	.	2a\	Do-	.	2ff#\	.	2aa\	.	2ff#\	.	2aa\	.
.	.	8A/	.	.	.	.	.	.	.	.	.	.	.	.	.	.	.	.	.	.	.	.	.	.	.	.
4d\	.	8F#/	.	.	.	.	4F#\	-na	.	.	.	.	.	.	.	.	.	.	.	.	.	.	.	.	.	.
.	.	8A/J	.	.	.	.	.	.	.	.	.	.	.	.	.	.	.	.	.	.	.	.	.	.	.	.
*	*	*Xrep	*	*	*	*	*	*	*	*	*	*	*	*	*	*	*	*	*	*	*	*	*	*	*	*
*	*	*rep	*	*	*	*	*	*	*	*	*	*	*	*	*	*	*	*	*	*	*	*	*	*	*	*
4d\	.	8F#/L	.	4d/	.	.	4A\	no-	.	4d\	-na	.	2d\	-na	.	4f#/	-na	.	4dd\	.	4ff#\	.	4dd\	.	4ff#\	.
.	.	8A/	.	.	.	.	.	.	.	.	.	.	.	.	.	.	.	.	.	.	.	.	.	.	.	.
4d\	.	8F#/	.	4e/	.	.	4d\	-bis	.	4e\	.	.	.	.	.	4g/	.	.	4ee\	.	4gg\	.	4ee\	.	4gg\	.
.	.	8A/J	.	.	.	.	.	.	.	.	.	.	.	.	.	.	.	.	.	.	.	.	.	.	.	.
*	*	*Xrep	*	*	*	*	*	*	*	*	*	*	*	*	*	*	*	*	*	*	*	*	*	*	*	*
!LO:PB:g=original	!	!	!	!	!	!	!	!	!	!	!	!	!	!	!	!	!	!	!	!	!	!	!	!	!	!
=58	=58	=58	=58	=58	=58	=58	=58	=58	=58	=58	=58	=58	=58	=58	=58	=58	=58	=58	=58	=58	=58	=58	=58	=58	=58	=58
*	*	*rep	*	*	*	*	*	*	*	*	*	*	*	*	*	*	*	*	*	*	*	*	*	*	*	*
!	!	!	!	!	!	!	!LO:SIC:s=4d^	!	!	!LO:SIC:s=4f#^	!	!	!	!	!	!	!	!	!	!	!	!	!	!	!	!
4d\	.	8F#/L	.	4f#/	.	1ryy	4d\	pa-	.	4f#\	no-	.	4f#^>\	no-	.	4a^>/	no-	.	(>4ff#^<\	.	(>4aa^<\	.	4ff#\	.	4aa^<\	.
.	.	8A/	.	.	.	.	.	.	.	.	.	.	.	.	.	.	.	.	.	.	.	.	.	.	.	.
4D/	.	8F#/	.	8d/	.	.	4d\	-cem	.	4d\	-bis	.	4f#\	-bis	.	4f#/	-bis	.	8dd\)	.	8ff#\)	.	4dd\	.	4ff#\	.
.	.	8A/J	.	8r	.	.	.	.	.	.	.	.	.	.	.	.	.	.	8r	.	8r	.	.	.	.	.
*	*	*Xrep	*	*	*	*	*	*	*	*	*	*	*	*	*	*	*	*	*	*	*	*	*	*	*	*
!	!	!	!	!	!	!	!LO:SIC:s=2A^	!	!	!LO:SIC:s=4e^	!	!	!	!	!	!	!	!	!	!	!	!	!	!	!	!
4A\	.	8E/L	.	4e/	.	.	2A\	pa-	.	4e\	pa-	.	2e^>\	pa-	.	4g^>/	pa-	.	(>4ee^<\	.	(>4gg^<\	.	4ee\	.	4gg^<\	.
.	.	8G/	.	.	.	.	.	.	.	.	.	.	.	.	.	.	.	.	.	.	.	.	.	.	.	.
4AA/	.	8E/	.	8c#/	.	.	.	.	.	4A\	.	.	.	.	.	4e/	.	.	8a/)	.	8ee\)	.	4cc#\	.	4ee\	.
.	.	8G/J	.	8r	.	.	.	.	.	.	.	.	.	.	.	.	.	.	8r	.	8r	.	.	.	.	.
!	!	!	!	!	!	!	!	!	!	!	!	!	!	!	!	!	!	!	!	!	!	!	!	!	!LO:LB:g=original	!
=59	=59	=59	=59	=59	=59	=59	=59	=59	=59	=59	=59	=59	=59	=59	=59	=59	=59	=59	=59	=59	=59	=59	=59	=59	=59	=59
4D/	.	4F#/	.	4d/	.	1ryy	4D\	-cem	.	4F#/	-cem	.	4d\	-cem	.	4d/	-cem	.	4f#/	.	4dd\	.	4dd\	.	4ff#\	.
4r	.	4r	.	4r	.	.	4r	.	.	4r	.	.	4r	.	.	4r	.	.	4r	.	4r	.	4r	.	4r	.
!	!	!LO:SIC:s=(2c#^	!	!	!	!	!	!	!	!	!	!	!	!	!	!	!	!	!LO:SIC:s=(4.a^	!	!	!	!	!	!LO:SIC:s=(2ccc#^	!
2r	.	(>2c#X\	.	(<2e^>/	.	.	2r	.	.	2r	.	.	2r	.	.	2r	.	.	4.a^</	.	(>4.ee^<\	.	(>2aa^<\	.	(>2ccc#\	.
!	!	!	!	!	!	!	!	!	!	!	!	!	!	!	!	!	!	!	!LO:SIC:s=8dd)	!	!	!	!	!	!	!
.	.	.	.	.	.	.	.	.	.	.	.	.	.	.	.	.	.	.	8dd\	.	8ff#\)	.	.	.	.	.
=60	=60	=60	=60	=60	=60	=60	=60	=60	=60	=60	=60	=60	=60	=60	=60	=60	=60	=60	=60	=60	=60	=60	=60	=60	=60	=60
!	!	!	!	!	!	!	!	!	!	!	!	!	!	!	!	!	!	!	!	!	!	!	!	!	!LO:SIC:s=4ddd)	!
2r	.	4d\)	.	4d/)	.	1ryy	2r	.	.	2r	.	.	2r	.	.	2r	.	.	4f#/	.	4dd\	.	4ff#\)	.	4ddd\)^<	.
.	.	4r	.	4r	.	.	.	.	.	.	.	.	.	.	.	.	.	.	4r	.	4r	.	4r	.	4r	.
!	!	!LO:LB:g=original	!	!	!	!	!	!	!	!	!	!	!	!	!	!	!	!	!	!	!	!	!	!	!	!
!	!	!LO:SIC:s=(2G^	!	!LO:SIC:s=(2c#^	!	!	!LO:SIC:s=2A^	!	!	!LO:SIC:s=2e^	!	!	!	!	!	!	!	!	!LO:SIC:s=(4.a^	!	!LO:SIC:s=(4.ee^	!	!	!	!LO:SIC:s=(2aa^	!
(<2AA^>/	.	(>2G/	.	(<2c#/	.	.	2A\	pa-	.	2e\	pa-	.	2g^>\	pa-	.	2cc#^>\	pa-	.	4.a^</	.	4.ee^<\	.	(>2cc#^<\	.	(>2aa\	.
!	!	!	!	!	!	!	!	!	!	!	!	!	!	!	!	!	!	!	!LO:SIC:s=8dd)	!	!LO:SIC:s=8ff#)	!	!	!	!	!
.	.	.	.	.	.	.	.	.	.	.	.	.	.	.	.	.	.	.	8dd\	.	8ff#\	.	.	.	.	.
!	!	!	!	!LO:LB:g=original	!	!	!LO:LB:g=original	!	!	!	!	!	!	!	!	!	!	!	!	!	!	!	!	!	!	!
=61	=61	=61	=61	=61	=61	=61	=61	=61	=61	=61	=61	=61	=61	=61	=61	=61	=61	=61	=61	=61	=61	=61	=61	=61	=61	=61
!LO:MO:mod=!LO&colon;TX&colon;a&colon;i&colon;t=dolce	!	!LO:MO:mod=!LO&colon;TX&colon;a&colon;i&colon;t=dolce	!	!LO:MO:mod=!LO&colon;TX&colon;a&colon;i&colon;t=dolce	!	!	!	!	!	!	!	!	!	!	!	!	!	!	!	!	!	!	!	!	!	!
!null	!	!null	!	!LO:TX:a:t=Dol&colon;	!	!	!	!LO:MO:mod=-cem.	!	!	!	!	!	!LO:MO:mod=-cem.	!	!	!LO:MO:mod=-cem.	!	!	!	!	!	!	!	!	!
4D/)	.	4F#/)	.	4d/)	.	1ryy	4D\	-cem	.	4A\	-cem.	.	4f#\	-cem	.	4dd\	-cem	.	4f#/	.	4dd\	.	4dd\)	.	4ff#\)	.
4r	.	4r	.	4r	.	.	4r	.	.	4r	.	.	4r	.	.	4r	.	.	4r	.	4r	.	4r	.	4r	.
!	!	!LO:SIC:s=(2G 2E^	!	!	!	!	!	!	!	!	!	!	!	!	!	!	!	!	!	!	!	!LO:DY:t=pp.	!LO:N:vis=4	!LO:MO:mod=pp	!	!
2r	.	2G/ 2E/	.	(<2A^>/	.	.	2r	.	.	2r	.	.	2r	.	.	2r	.	.	4.a/	pp	4.ee\	pp	4.a/	fp	4.ee\	pp
.	.	.	.	.	.	.	.	.	.	.	.	.	.	.	.	.	.	.	8dd\	.	8ff#\	.	8dd\	.	8ff#\	.
!	!	!	!	!	!	!	!	!	!	!	!	!	!	!	!	!	!	!	!	!	!	!	!LO:LB:g=original	!	!	!
=62	=62	=62	=62	=62	=62	=62	=62	=62	=62	=62	=62	=62	=62	=62	=62	=62	=62	=62	=62	=62	=62	=62	=62	=62	=62	=62
!	!	!	!	!	!LO:MO:mod=!LO&colon;DY&colon;ed=brack	!	!	!	!	!	!	!	!	!	!	!	!	!	!	!	!	!	!	!	!	!
!	!LO:DY:t=pp.	!	!LO:DY:rj:t=p.	!	!null	!	!	!	!	!LO:TX:a:t=2:mod=	!	!	!	!	!	!	!	!	!	!	!	!	!	!	!	!
!	!LO:MO:mod=p	!LO:SIC:s=(4A 4F#)	!	!	!LO:MO:null:mod=p	!	!	!	!	!	!	!	!	!	!	!	!	!	!	!	!	!	!	!	!	!
4D/	pp	4A/ 4F#/	p	4d/ 4A/)	.	1ryy	0r	.	.	0r	.	.	0r	.	.	1r	.	.	4f#/	.	4dd\	.	4f#/	.	4dd\	.
4r	.	4r	.	4r	.	.	.	.	.	.	.	.	.	.	.	.	.	.	4r	.	4r	.	4r	.	4r	.
4D/	.	4A/ 4F#/	.	4d/ 4A/	.	.	.	.	.	.	.	.	.	.	.	.	.	.	4f#/	.	4dd\	.	4d/	.	4f#/	.
4r	.	4r	.	4r	.	.	.	.	.	.	.	.	.	.	.	.	.	.	4r	.	4r	.	4r	.	4r	.
=63	=63	=63	=63	=63	=63	=63	=63	=63	=63	=63	=63	=63	=63	=63	=63	=63	=63	=63	=63	=63	=63	=63	=63	=63	=63	=63
2D\	.	2A/ 2F#/	.	2d/ 2A/	.	1ryy	.	.	.	.	.	.	.	.	.	1r	.	.	2f#/	.	2dd\	.	2d/	.	2f#/	.
2r	.	2r	.	2r	.	.	.	.	.	.	.	.	.	.	.	.	.	.	2r	.	2r	.	2r	.	2r	.
==	==	==	==	==	==	==	==	==	==	==	==	==	==	==	==	==	==	==	==	==	==	==	==	==	==	==
*-	*-	*-	*-	*-	*-	*-	*-	*-	*-	*-	*-	*-	*-	*-	*-	*-	*-	*-	*-	*-	*-	*-	*-	*-	*-	*-
!!!system-decoration: [(g1)][(g2)][(g3)][(g4)]<s12>
!!!RDF**kern: > = above
!!!RDF**kern: < = below
!!!ENC: Andrzej Gręziak
!!!END: 2021-12-08
!!!ENC: Jędrzej Mróz
!!!END: 2021-12-14
!!!ENC-modern: Andrzej Kubiczek
!!!END-modern: 2022-10-03
!!!filter-modern: shed -k -e "s/([^a-gA-Gn#X-])[<>]/$1/g" | shed -e "s/LO:N:/LO:n:$1/L" | shed -e "s/^(\d+[\/\\]right)/$1yy/I" | shed -e "s/TX(.*):t=P:/tx$1:t=P:/LG" | shed -e "s/:rj/:RJ/L" | shed -e "s/^(X?)rep$/$1REP/I" | shed -e "s/(LO:DY.*):t=(.*$)/$1:T=$2/L; s/LO:DY(.*)(:a:)(.*)/LO:dy:$1$2$3/L; s/LO:DY(.*)(:b:)(.*)/LO:dy:$1$2$3/L; s/LO:DY(.*)(:rj:)(.*)/LO:dy:$1$2$3/L" | sic -sq | modori -m | autostem -r | tie -s | humtr -p | shed -e "s/yy//"
!!!YEC: Copyright 2022 Narodowy Instytut Fryderyka Chopina (https://polishscores.org)
!!!YEM: License CC-BY-4.0 (https://creativecommons.org/licenses/by/4.0)
